(G-CODE GENERATED BY FLATCAM v8.993 - www.flatcam.org - Version Date: 2020/06/05)

(Name: cutout)
(Type: G-code from Geometry)
(Units: MM)

(Created on Monday, 02 November 2020 at 10:04)

(This preprocessor is the default preprocessor used by FlatCAM.)
(It is made to work with MACH3 compatible motion controllers.)

(TOOL DIAMETER: 1.6 mm)
(Feedrate_XY: 120.0 mm/min)
(Feedrate_Z: 60.0 mm/min)
(Feedrate rapids 1500.0 mm/min)

(Z_Cut: -2.1 mm)
(DepthPerCut: 0.6 mm <=>4 passes)
(Z_Move: 2.0 mm)
(Z Start: None mm)
(Z End: 15.0 mm)
(Steps per circle: 64)
(Preprocessor Geometry: default)

(X range:   -0.8990 ...   53.9010  mm)
(Y range:   -0.1180 ...   30.6380  mm)

(Spindle Speed: 8000 RPM)
G21
G90
G94



G01 F120.00
G00 Z2.0000

M03 S8000
G00 X-0.8990 Y14.3100
G01 F60.00
G01 Z-0.6000
G01 F120.00
G01 X-0.8990 Y0.7820
G01 X-0.8947 Y0.6938
G01 X-0.8817 Y0.6064
G01 X-0.8602 Y0.5207
G01 X-0.8305 Y0.4376
G01 X-0.7927 Y0.3577
G01 X-0.7473 Y0.2820
G01 X-0.6947 Y0.2110
G01 X-0.6354 Y0.1456
G01 X-0.5700 Y0.0863
G01 X-0.4990 Y0.0337
G01 X-0.4233 Y-0.0117
G01 X-0.3434 Y-0.0495
G01 X-0.2603 Y-0.0792
G01 X-0.1746 Y-0.1007
G01 X-0.0872 Y-0.1137
G01 X0.0010 Y-0.1180
G01 X53.0010 Y-0.1180
G00 X53.0010 Y-0.1180
G01 F60.00
G01 Z-1.2000
G01 F120.00
G01 X0.0010 Y-0.1180
G01 X-0.0872 Y-0.1137
G01 X-0.1746 Y-0.1007
G01 X-0.2603 Y-0.0792
G01 X-0.3434 Y-0.0495
G01 X-0.4233 Y-0.0117
G01 X-0.4990 Y0.0337
G01 X-0.5700 Y0.0863
G01 X-0.6354 Y0.1456
G01 X-0.6947 Y0.2110
G01 X-0.7473 Y0.2820
G01 X-0.7927 Y0.3577
G01 X-0.8305 Y0.4376
G01 X-0.8602 Y0.5207
G01 X-0.8817 Y0.6064
G01 X-0.8947 Y0.6938
G01 X-0.8990 Y0.7820
G01 X-0.8990 Y14.3100
G00 X-0.8990 Y14.3100
G01 F60.00
G01 Z-1.8000
G01 F120.00
G01 X-0.8990 Y0.7820
G01 X-0.8947 Y0.6938
G01 X-0.8817 Y0.6064
G01 X-0.8602 Y0.5207
G01 X-0.8305 Y0.4376
G01 X-0.7927 Y0.3577
G01 X-0.7473 Y0.2820
G01 X-0.6947 Y0.2110
G01 X-0.6354 Y0.1456
G01 X-0.5700 Y0.0863
G01 X-0.4990 Y0.0337
G01 X-0.4233 Y-0.0117
G01 X-0.3434 Y-0.0495
G01 X-0.2603 Y-0.0792
G01 X-0.1746 Y-0.1007
G01 X-0.0872 Y-0.1137
G01 X0.0010 Y-0.1180
G01 X53.0010 Y-0.1180
G00 X53.0010 Y-0.1180
G01 F60.00
G01 Z-2.1000
G01 F120.00
G01 X0.0010 Y-0.1180
G01 X-0.0872 Y-0.1137
G01 X-0.1746 Y-0.1007
G01 X-0.2603 Y-0.0792
G01 X-0.3434 Y-0.0495
G01 X-0.4233 Y-0.0117
G01 X-0.4990 Y0.0337
G01 X-0.5700 Y0.0863
G01 X-0.6354 Y0.1456
G01 X-0.6947 Y0.2110
G01 X-0.7473 Y0.2820
G01 X-0.7927 Y0.3577
G01 X-0.8305 Y0.4376
G01 X-0.8602 Y0.5207
G01 X-0.8817 Y0.6064
G01 X-0.8947 Y0.6938
G01 X-0.8990 Y0.7820
G01 X-0.8990 Y14.3100
G00 Z2.0000
G00 X-0.8990 Y16.4100
G01 F60.00
G01 Z-0.6000
G01 F120.00
G01 X-0.8990 Y29.7380
G01 X-0.8947 Y29.8262
G01 X-0.8817 Y29.9136
G01 X-0.8602 Y29.9993
G01 X-0.8305 Y30.0824
G01 X-0.7927 Y30.1623
G01 X-0.7473 Y30.2380
G01 X-0.6947 Y30.3090
G01 X-0.6354 Y30.3744
G01 X-0.5700 Y30.4337
G01 X-0.4990 Y30.4863
G01 X-0.4233 Y30.5317
G01 X-0.3434 Y30.5695
G01 X-0.2603 Y30.5992
G01 X-0.1746 Y30.6207
G01 X-0.0872 Y30.6337
G01 X0.0010 Y30.6380
G01 X53.0010 Y30.6380
G01 X53.0892 Y30.6337
G01 X53.1766 Y30.6207
G01 X53.2623 Y30.5992
G01 X53.3454 Y30.5695
G01 X53.4253 Y30.5317
G01 X53.5010 Y30.4863
G01 X53.5720 Y30.4337
G01 X53.6374 Y30.3744
G01 X53.6967 Y30.3090
G01 X53.7493 Y30.2380
G01 X53.7947 Y30.1623
G01 X53.8325 Y30.0824
G01 X53.8622 Y29.9993
G01 X53.8837 Y29.9136
G01 X53.8967 Y29.8262
G01 X53.9010 Y29.7380
G01 X53.9010 Y16.4100
G00 X53.9010 Y16.4100
G01 F60.00
G01 Z-1.2000
G01 F120.00
G01 X53.9010 Y29.7380
G01 X53.8967 Y29.8262
G01 X53.8837 Y29.9136
G01 X53.8622 Y29.9993
G01 X53.8325 Y30.0824
G01 X53.7947 Y30.1623
G01 X53.7493 Y30.2380
G01 X53.6967 Y30.3090
G01 X53.6374 Y30.3744
G01 X53.5720 Y30.4337
G01 X53.5010 Y30.4863
G01 X53.4253 Y30.5317
G01 X53.3454 Y30.5695
G01 X53.2623 Y30.5992
G01 X53.1766 Y30.6207
G01 X53.0892 Y30.6337
G01 X53.0010 Y30.6380
G01 X0.0010 Y30.6380
G01 X-0.0872 Y30.6337
G01 X-0.1746 Y30.6207
G01 X-0.2603 Y30.5992
G01 X-0.3434 Y30.5695
G01 X-0.4233 Y30.5317
G01 X-0.4990 Y30.4863
G01 X-0.5700 Y30.4337
G01 X-0.6354 Y30.3744
G01 X-0.6947 Y30.3090
G01 X-0.7473 Y30.2380
G01 X-0.7927 Y30.1623
G01 X-0.8305 Y30.0824
G01 X-0.8602 Y29.9993
G01 X-0.8817 Y29.9136
G01 X-0.8947 Y29.8262
G01 X-0.8990 Y29.7380
G01 X-0.8990 Y16.4100
G00 X-0.8990 Y16.4100
G01 F60.00
G01 Z-1.8000
G01 F120.00
G01 X-0.8990 Y29.7380
G01 X-0.8947 Y29.8262
G01 X-0.8817 Y29.9136
G01 X-0.8602 Y29.9993
G01 X-0.8305 Y30.0824
G01 X-0.7927 Y30.1623
G01 X-0.7473 Y30.2380
G01 X-0.6947 Y30.3090
G01 X-0.6354 Y30.3744
G01 X-0.5700 Y30.4337
G01 X-0.4990 Y30.4863
G01 X-0.4233 Y30.5317
G01 X-0.3434 Y30.5695
G01 X-0.2603 Y30.5992
G01 X-0.1746 Y30.6207
G01 X-0.0872 Y30.6337
G01 X0.0010 Y30.6380
G01 X53.0010 Y30.6380
G01 X53.0892 Y30.6337
G01 X53.1766 Y30.6207
G01 X53.2623 Y30.5992
G01 X53.3454 Y30.5695
G01 X53.4253 Y30.5317
G01 X53.5010 Y30.4863
G01 X53.5720 Y30.4337
G01 X53.6374 Y30.3744
G01 X53.6967 Y30.3090
G01 X53.7493 Y30.2380
G01 X53.7947 Y30.1623
G01 X53.8325 Y30.0824
G01 X53.8622 Y29.9993
G01 X53.8837 Y29.9136
G01 X53.8967 Y29.8262
G01 X53.9010 Y29.7380
G01 X53.9010 Y16.4100
G00 X53.9010 Y16.4100
G01 F60.00
G01 Z-2.1000
G01 F120.00
G01 X53.9010 Y29.7380
G01 X53.8967 Y29.8262
G01 X53.8837 Y29.9136
G01 X53.8622 Y29.9993
G01 X53.8325 Y30.0824
G01 X53.7947 Y30.1623
G01 X53.7493 Y30.2380
G01 X53.6967 Y30.3090
G01 X53.6374 Y30.3744
G01 X53.5720 Y30.4337
G01 X53.5010 Y30.4863
G01 X53.4253 Y30.5317
G01 X53.3454 Y30.5695
G01 X53.2623 Y30.5992
G01 X53.1766 Y30.6207
G01 X53.0892 Y30.6337
G01 X53.0010 Y30.6380
G01 X0.0010 Y30.6380
G01 X-0.0872 Y30.6337
G01 X-0.1746 Y30.6207
G01 X-0.2603 Y30.5992
G01 X-0.3434 Y30.5695
G01 X-0.4233 Y30.5317
G01 X-0.4990 Y30.4863
G01 X-0.5700 Y30.4337
G01 X-0.6354 Y30.3744
G01 X-0.6947 Y30.3090
G01 X-0.7473 Y30.2380
G01 X-0.7927 Y30.1623
G01 X-0.8305 Y30.0824
G01 X-0.8602 Y29.9993
G01 X-0.8817 Y29.9136
G01 X-0.8947 Y29.8262
G01 X-0.8990 Y29.7380
G01 X-0.8990 Y16.4100
G00 Z2.0000
G00 X53.9010 Y14.3100
G01 F60.00
G01 Z-0.6000
G01 F120.00
G01 X53.9010 Y0.7820
G01 X53.8967 Y0.6938
G01 X53.8837 Y0.6064
G01 X53.8622 Y0.5207
G01 X53.8325 Y0.4376
G01 X53.7947 Y0.3577
G01 X53.7493 Y0.2820
G01 X53.6967 Y0.2110
G01 X53.6374 Y0.1456
G01 X53.5720 Y0.0863
G01 X53.5010 Y0.0337
G01 X53.4253 Y-0.0117
G01 X53.3454 Y-0.0495
G01 X53.2623 Y-0.0792
G01 X53.1766 Y-0.1007
G01 X53.0892 Y-0.1137
G01 X53.0010 Y-0.1180
G00 X53.0010 Y-0.1180
G01 F60.00
G01 Z-1.2000
G01 F120.00
G01 X53.0892 Y-0.1137
G01 X53.1766 Y-0.1007
G01 X53.2623 Y-0.0792
G01 X53.3454 Y-0.0495
G01 X53.4253 Y-0.0117
G01 X53.5010 Y0.0337
G01 X53.5720 Y0.0863
G01 X53.6374 Y0.1456
G01 X53.6967 Y0.2110
G01 X53.7493 Y0.2820
G01 X53.7947 Y0.3577
G01 X53.8325 Y0.4376
G01 X53.8622 Y0.5207
G01 X53.8837 Y0.6064
G01 X53.8967 Y0.6938
G01 X53.9010 Y0.7820
G01 X53.9010 Y14.3100
G00 X53.9010 Y14.3100
G01 F60.00
G01 Z-1.8000
G01 F120.00
G01 X53.9010 Y0.7820
G01 X53.8967 Y0.6938
G01 X53.8837 Y0.6064
G01 X53.8622 Y0.5207
G01 X53.8325 Y0.4376
G01 X53.7947 Y0.3577
G01 X53.7493 Y0.2820
G01 X53.6967 Y0.2110
G01 X53.6374 Y0.1456
G01 X53.5720 Y0.0863
G01 X53.5010 Y0.0337
G01 X53.4253 Y-0.0117
G01 X53.3454 Y-0.0495
G01 X53.2623 Y-0.0792
G01 X53.1766 Y-0.1007
G01 X53.0892 Y-0.1137
G01 X53.0010 Y-0.1180
G00 X53.0010 Y-0.1180
G01 F60.00
G01 Z-2.1000
G01 F120.00
G01 X53.0892 Y-0.1137
G01 X53.1766 Y-0.1007
G01 X53.2623 Y-0.0792
G01 X53.3454 Y-0.0495
G01 X53.4253 Y-0.0117
G01 X53.5010 Y0.0337
G01 X53.5720 Y0.0863
G01 X53.6374 Y0.1456
G01 X53.6967 Y0.2110
G01 X53.7493 Y0.2820
G01 X53.7947 Y0.3577
G01 X53.8325 Y0.4376
G01 X53.8622 Y0.5207
G01 X53.8837 Y0.6064
G01 X53.8967 Y0.6938
G01 X53.9010 Y0.7820
G01 X53.9010 Y14.3100
G00 Z2.0000
M05
G00 Z2.0000
G00 Z15.00

