(G-CODE GENERATED BY FLATCAM v8.993 - www.flatcam.org - Version Date: 2020/06/05)

(Name: drills)
(Type: G-code from Excellon)
(Units: MM)

(Created on Monday, 02 November 2020 at 10:08)

(This preprocessor is the default preprocessor used by FlatCAM.)
(It is made to work with MACH3 compatible motion controllers.)


(TOOLS DIAMETER: )
(Tool: 1 -> Dia: 0.9)
(Tool: 2 -> Dia: 1.3)

(FEEDRATE Z: )
(Tool: 1 -> Feedrate: 300)
(Tool: 2 -> Feedrate: 300)

(FEEDRATE RAPIDS: )
(Tool: 1 -> Feedrate Rapids: 1500)
(Tool: 2 -> Feedrate Rapids: 1500)

(Z_CUT: )
(Tool: 1 -> Z_Cut: -2.1)
(Tool: 2 -> Z_Cut: -2.1)

(Tools Offset: )
(Tool: 1 -> Offset Z: -0.0)
(Tool: 2 -> Offset Z: -0.0)

(Z_MOVE: )
(Tool: 1 -> Z_Move: 2)
(Tool: 2 -> Z_Move: 2)

(Z Toolchange: 15.0 mm)
(X,Y Toolchange: 0.0000, 0.0000 mm)
(Z Start: None mm)
(Z End: 2.0 mm)
(Steps per circle: 64)
(Preprocessor Excellon: default)

(X range:    3.2540 ...   49.7500  mm)
(Y range:    2.0900 ...   24.3990  mm)

(Spindle Speed: 8000.0 RPM)
G21
G90
G94



G01 F300.00

M5
G00 Z15.0000
T1
G00 X0.0000 Y0.0000                
M6
(MSG, Change to Tool Dia = 0.9000 ||| Total drills for tool T1 = 30)
M0
G00 Z15.0000

M03 S8000
G00 X7.5170 Y2.5400
G01 Z-2.1000
G01 Z0
G00 Z2.0000
G00 X10.0570 Y2.5400
G01 Z-2.1000
G01 Z0
G00 Z2.0000
G00 X12.5970 Y2.5400
G01 Z-2.1000
G01 Z0
G00 Z2.0000
G00 X15.1370 Y2.5400
G01 Z-2.1000
G01 Z0
G00 Z2.0000
G00 X17.6770 Y2.5400
G01 Z-2.1000
G01 Z0
G00 Z2.0000
G00 X20.2170 Y2.5400
G01 Z-2.1000
G01 Z0
G00 Z2.0000
G00 X22.7570 Y2.5400
G01 Z-2.1000
G01 Z0
G00 Z2.0000
G00 X25.2970 Y2.5400
G01 Z-2.1000
G01 Z0
G00 Z2.0000
G00 X27.8370 Y2.5400
G01 Z-2.1000
G01 Z0
G00 Z2.0000
G00 X30.3770 Y2.5400
G01 Z-2.1000
G01 Z0
G00 Z2.0000
G00 X32.9170 Y2.5400
G01 Z-2.1000
G01 Z0
G00 Z2.0000
G00 X35.4570 Y2.5400
G01 Z-2.1000
G01 Z0
G00 Z2.0000
G00 X37.9970 Y2.5400
G01 Z-2.1000
G01 Z0
G00 Z2.0000
G00 X40.5370 Y2.5400
G01 Z-2.1000
G01 Z0
G00 Z2.0000
G00 X43.0770 Y2.5400
G01 Z-2.1000
G01 Z0
G00 Z2.0000
G00 X45.6170 Y2.5400
G01 Z-2.1000
G01 Z0
G00 Z2.0000
G00 X42.4020 Y9.3980
G01 Z-2.1000
G01 Z0
G00 Z2.0000
G00 X49.3000 Y12.3190
G01 Z-2.1000
G01 Z0
G00 Z2.0000
G00 X49.3000 Y22.4790
G01 Z-2.1000
G01 Z0
G00 Z2.0000
G00 X36.1020 Y15.7480
G01 Z-2.1000
G01 Z0
G00 Z2.0000
G00 X37.4020 Y9.3980
G01 Z-2.1000
G01 Z0
G00 Z2.0000
G00 X32.5360 Y11.9380
G01 Z-2.1000
G01 Z0
G00 Z2.0000
G00 X32.5360 Y9.3980
G01 Z-2.1000
G01 Z0
G00 Z2.0000
G00 X32.5360 Y7.1120
G01 Z-2.1000
G01 Z0
G00 Z2.0000
G00 X25.2970 Y7.1120
G01 Z-2.1000
G01 Z0
G00 Z2.0000
G00 X20.0520 Y9.3980
G01 Z-2.1000
G01 Z0
G00 Z2.0000
G00 X15.0520 Y9.3980
G01 Z-2.1000
G01 Z0
G00 Z2.0000
G00 X13.7400 Y15.7480
G01 Z-2.1000
G01 Z0
G00 Z2.0000
G00 X3.7040 Y22.4830
G01 Z-2.1000
G01 Z0
G00 Z2.0000
G00 X3.7040 Y12.3230
G01 Z-2.1000
G01 Z0
G00 Z2.0000
G01 F300.00

M5
G00 Z15.0000
T2
G00 X0.0000 Y0.0000                
M6
(MSG, Change to Tool Dia = 1.3000 ||| Total drills for tool T2 = 22)
M0
G00 Z15.0000

M03 S8000
G00 X7.4520 Y18.4190
G01 Z-2.1000
G01 Z0
G00 Z2.0000
G00 X10.6020 Y18.4190
G01 Z-2.1000
G01 Z0
G00 Z2.0000
G00 X13.7520 Y18.4190
G01 Z-2.1000
G01 Z0
G00 Z2.0000
G00 X16.9020 Y18.4190
G01 Z-2.1000
G01 Z0
G00 Z2.0000
G00 X20.0520 Y18.4190
G01 Z-2.1000
G01 Z0
G00 Z2.0000
G00 X23.2020 Y18.4190
G01 Z-2.1000
G01 Z0
G00 Z2.0000
G00 X29.8020 Y18.4150
G01 Z-2.1000
G01 Z0
G00 Z2.0000
G00 X32.9520 Y18.4150
G01 Z-2.1000
G01 Z0
G00 Z2.0000
G00 X36.1020 Y18.4150
G01 Z-2.1000
G01 Z0
G00 Z2.0000
G00 X39.2520 Y18.4150
G01 Z-2.1000
G01 Z0
G00 Z2.0000
G00 X42.4020 Y18.4150
G01 Z-2.1000
G01 Z0
G00 Z2.0000
G00 X45.5520 Y18.4150
G01 Z-2.1000
G01 Z0
G00 Z2.0000
G00 X43.9770 Y23.7450
G01 Z-2.1000
G01 Z0
G00 Z2.0000
G00 X40.8270 Y23.7450
G01 Z-2.1000
G01 Z0
G00 Z2.0000
G00 X37.6770 Y23.7450
G01 Z-2.1000
G01 Z0
G00 Z2.0000
G00 X34.5270 Y23.7450
G01 Z-2.1000
G01 Z0
G00 Z2.0000
G00 X31.3770 Y23.7450
G01 Z-2.1000
G01 Z0
G00 Z2.0000
G00 X21.6270 Y23.7490
G01 Z-2.1000
G01 Z0
G00 Z2.0000
G00 X18.4770 Y23.7490
G01 Z-2.1000
G01 Z0
G00 Z2.0000
G00 X15.3270 Y23.7490
G01 Z-2.1000
G01 Z0
G00 Z2.0000
G00 X12.1770 Y23.7490
G01 Z-2.1000
G01 Z0
G00 Z2.0000
G00 X9.0270 Y23.7490
G01 Z-2.1000
G01 Z0
G00 Z2.0000
M05
G00 Z2.00

