(G-CODE GENERATED BY FLATCAM v8.993 - www.flatcam.org - Version Date: 2020/06/05)

(Name: isolation)
(Type: G-code from Geometry)
(Units: MM)

(Created on Monday, 02 November 2020 at 10:07)

(This preprocessor is the default preprocessor used by FlatCAM.)
(It is made to work with MACH3 compatible motion controllers.)

(TOOL DIAMETER: 0.1 mm)
(Feedrate_XY: 120.0 mm/min)
(Feedrate_Z: 60.0 mm/min)
(Feedrate rapids 1500.0 mm/min)

(Z_Cut: -0.07 mm)
(Z_Move: 2.0 mm)
(Z Start: None mm)
(Z End: 15.0 mm)
(Steps per circle: 64)
(Preprocessor Geometry: default)

(X range:   -0.2300 ...   53.2300  mm)
(Y range:   -0.2300 ...   29.1860  mm)

(Spindle Speed: None RPM)
G21
G90
G94



G01 F120.00
G00 Z2.0000

M03
G00 X6.8838 Y1.6663
G01 F60.00
G01 Z-0.0700
G01 F120.00
G01 X6.8408 Y1.6982
G01 X6.8275 Y1.7088
G01 X6.7615 Y1.7685
G01 X6.7533 Y1.7763
G01 X6.6895 Y1.8463
G01 X6.6821 Y1.8549
G01 X6.6261 Y1.9299
G01 X6.6218 Y1.9107
G01 X6.6186 Y1.8999
G01 X6.6149 Y1.8894
G01 X6.6084 Y1.8739
G01 X6.6034 Y1.8639
G01 X6.5980 Y1.8541
G01 X6.5232 Y1.7271
G01 X6.5172 Y1.7174
G01 X6.5073 Y1.7035
G01 X6.4964 Y1.6904
G01 X6.4845 Y1.6781
G01 X6.4712 Y1.6663
G01 X6.8838 Y1.6663
G00 Z2.0000
G00 X8.4169 Y2.5425
G01 F60.00
G01 Z-0.0700
G01 F120.00
G01 X8.4127 Y2.6282
G01 X8.3997 Y2.7156
G01 X8.3782 Y2.8013
G01 X8.3485 Y2.8844
G01 X8.3107 Y2.9643
G01 X8.2653 Y3.0400
G01 X8.2127 Y3.1110
G01 X8.1534 Y3.1764
G01 X8.0880 Y3.2357
G01 X8.0170 Y3.2883
G01 X7.9413 Y3.3337
G01 X7.8614 Y3.3715
G01 X7.7783 Y3.4012
G01 X7.6926 Y3.4227
G01 X7.6052 Y3.4357
G01 X7.5170 Y3.4400
G01 X7.4288 Y3.4357
G01 X7.3414 Y3.4227
G01 X7.2557 Y3.4012
G01 X7.1726 Y3.3715
G01 X7.0927 Y3.3337
G01 X7.0170 Y3.2883
G01 X6.9460 Y3.2357
G01 X6.8806 Y3.1764
G01 X6.8213 Y3.1110
G01 X6.7687 Y3.0400
G01 X6.7233 Y2.9643
G01 X6.6855 Y2.8844
G01 X6.6558 Y2.8013
G01 X6.6343 Y2.7156
G01 X6.6213 Y2.6282
G01 X6.6170 Y2.5400
G01 X6.6213 Y2.4518
G01 X6.6343 Y2.3644
G01 X6.6558 Y2.2787
G01 X6.6855 Y2.1956
G01 X6.7233 Y2.1157
G01 X6.7687 Y2.0400
G01 X6.8213 Y1.9690
G01 X6.8806 Y1.9036
G01 X6.9460 Y1.8443
G01 X7.0170 Y1.7917
G01 X7.0927 Y1.7463
G01 X7.1726 Y1.7085
G01 X7.2557 Y1.6788
G01 X7.3414 Y1.6573
G01 X7.4288 Y1.6443
G01 X7.5170 Y1.6400
G01 X7.6052 Y1.6443
G01 X7.6926 Y1.6573
G01 X7.7783 Y1.6788
G01 X7.8614 Y1.7085
G01 X7.9413 Y1.7463
G01 X8.0170 Y1.7917
G01 X8.0880 Y1.8443
G01 X8.1534 Y1.9036
G01 X8.2127 Y1.9690
G01 X8.2653 Y2.0400
G01 X8.3107 Y2.1157
G01 X8.3485 Y2.1956
G01 X8.3782 Y2.2787
G01 X8.3997 Y2.3644
G01 X8.4127 Y2.4518
G01 X8.4169 Y2.5425
G00 Z2.0000
G00 X8.4769 Y2.5454
G01 F60.00
G01 Z-0.0700
G01 F120.00
G01 X8.4724 Y2.6341
G01 X8.4586 Y2.7273
G01 X8.4357 Y2.8187
G01 X8.4039 Y2.9074
G01 X8.3636 Y2.9925
G01 X8.3152 Y3.0733
G01 X8.2591 Y3.1490
G01 X8.1958 Y3.2188
G01 X8.1260 Y3.2821
G01 X8.0503 Y3.3382
G01 X7.9695 Y3.3866
G01 X7.8844 Y3.4269
G01 X7.7957 Y3.4587
G01 X7.7043 Y3.4816
G01 X7.6111 Y3.4954
G01 X7.5170 Y3.5000
G01 X7.4229 Y3.4954
G01 X7.3297 Y3.4816
G01 X7.2383 Y3.4587
G01 X7.1496 Y3.4269
G01 X7.0645 Y3.3866
G01 X6.9837 Y3.3382
G01 X6.9080 Y3.2821
G01 X6.8382 Y3.2188
G01 X6.7749 Y3.1490
G01 X6.7188 Y3.0733
G01 X6.6704 Y2.9925
G01 X6.6301 Y2.9074
G01 X6.5983 Y2.8187
G01 X6.5754 Y2.7273
G01 X6.5616 Y2.6341
G01 X6.5570 Y2.5400
G01 X6.5616 Y2.4459
G01 X6.5754 Y2.3527
G01 X6.5983 Y2.2613
G01 X6.6301 Y2.1726
G01 X6.6704 Y2.0875
G01 X6.7188 Y2.0067
G01 X6.7749 Y1.9310
G01 X6.8382 Y1.8612
G01 X6.9080 Y1.7979
G01 X6.9837 Y1.7418
G01 X7.0645 Y1.6934
G01 X7.1496 Y1.6531
G01 X7.2383 Y1.6213
G01 X7.3297 Y1.5984
G01 X7.4229 Y1.5846
G01 X7.5170 Y1.5800
G01 X7.6111 Y1.5846
G01 X7.7043 Y1.5984
G01 X7.7957 Y1.6213
G01 X7.8844 Y1.6531
G01 X7.9695 Y1.6934
G01 X8.0503 Y1.7418
G01 X8.1260 Y1.7979
G01 X8.1958 Y1.8612
G01 X8.2591 Y1.9310
G01 X8.3152 Y2.0067
G01 X8.3636 Y2.0875
G01 X8.4039 Y2.1726
G01 X8.4357 Y2.2613
G01 X8.4586 Y2.3527
G01 X8.4724 Y2.4459
G01 X8.4769 Y2.5346
G01 X8.4769 Y2.5454
G00 Z2.0000
G00 X8.5368 Y2.5483
G01 F60.00
G01 Z-0.0700
G01 F120.00
G01 X8.5368 Y2.5317
G01 X8.5327 Y2.4483
G01 X8.5311 Y2.4317
G01 X8.5174 Y2.3410
G01 X8.4931 Y2.2439
G01 X8.4624 Y2.1574
G01 X8.4560 Y2.1420
G01 X8.4166 Y2.0592
G01 X8.3674 Y1.9768
G01 X8.3603 Y1.9665
G01 X8.3106 Y1.8995
G01 X8.3000 Y1.8866
G01 X8.2382 Y1.8188
G01 X8.1641 Y1.7515
G01 X8.0905 Y1.6967
G01 X8.0766 Y1.6874
G01 X7.9978 Y1.6404
G01 X7.9260 Y1.6063
G01 X9.6480 Y1.6063
G01 X9.5762 Y1.6404
G01 X9.4974 Y1.6874
G01 X9.4835 Y1.6967
G01 X9.4099 Y1.7515
G01 X9.3418 Y1.8130
G01 X9.3300 Y1.8248
G01 X9.2685 Y1.8929
G01 X9.2113 Y1.9699
G01 X9.2044 Y1.9804
G01 X9.1616 Y2.0519
G01 X9.1537 Y2.0666
G01 X9.1146 Y2.1497
G01 X9.0835 Y2.2360
G01 X9.0787 Y2.2520
G01 X9.0566 Y2.3410
G01 X9.0429 Y2.4317
G01 X9.0413 Y2.4483
G01 X9.0370 Y2.5400
G01 X9.0419 Y2.6400
G01 X9.0566 Y2.7390
G01 X9.0787 Y2.8280
G01 X9.0835 Y2.8440
G01 X9.1146 Y2.9303
G01 X9.1537 Y3.0134
G01 X9.1616 Y3.0281
G01 X9.2044 Y3.0996
G01 X9.2137 Y3.1135
G01 X9.2685 Y3.1871
G01 X9.3217 Y3.2461
G01 X9.3217 Y7.6614
G01 X4.8841 Y12.0991
G01 X4.8399 Y12.1478
G01 X4.8055 Y12.1938
G01 X4.7962 Y12.2077
G01 X4.7689 Y12.2534
G01 X4.7631 Y12.2645
G01 X4.7388 Y12.3165
G01 X4.7223 Y12.3620
G01 X4.7238 Y12.3313
G01 X4.7239 Y12.3188
G01 X4.7194 Y12.2272
G01 X4.7181 Y12.2147
G01 X4.7052 Y12.1281
G01 X4.7026 Y12.1159
G01 X4.6801 Y12.0269
G01 X4.6494 Y11.9404
G01 X4.6447 Y11.9288
G01 X4.6036 Y11.8422
G01 X4.5566 Y11.7634
G01 X4.5473 Y11.7495
G01 X4.4976 Y11.6825
G01 X4.4870 Y11.6696
G01 X4.4252 Y11.6018
G01 X4.3743 Y11.5553
G01 X4.3743 Y2.9476
G01 X5.7156 Y1.6063
G01 X7.1080 Y1.6063
G01 X7.0362 Y1.6404
G01 X6.9503 Y1.6919
G01 X6.8699 Y1.7515
G01 X6.8018 Y1.8130
G01 X6.7900 Y1.8248
G01 X6.7340 Y1.8866
G01 X6.7234 Y1.8995
G01 X6.6689 Y1.9733
G01 X6.6216 Y2.0519
G01 X6.6137 Y2.0666
G01 X6.5780 Y2.1420
G01 X6.5716 Y2.1574
G01 X6.5409 Y2.2439
G01 X6.5166 Y2.3410
G01 X6.5029 Y2.4317
G01 X6.5013 Y2.4483
G01 X6.4970 Y2.5400
G01 X6.5013 Y2.6317
G01 X6.5029 Y2.6483
G01 X6.5152 Y2.7308
G01 X6.5184 Y2.7471
G01 X6.5409 Y2.8361
G01 X6.5746 Y2.9303
G01 X6.6174 Y3.0208
G01 X6.6644 Y3.0996
G01 X6.6737 Y3.1135
G01 X6.7285 Y3.1871
G01 X6.7900 Y3.2552
G01 X6.8018 Y3.2670
G01 X6.8699 Y3.3285
G01 X6.9503 Y3.3881
G01 X7.0289 Y3.4354
G01 X7.0436 Y3.4433
G01 X7.1267 Y3.4824
G01 X7.2169 Y3.5148
G01 X7.2290 Y3.5183
G01 X7.3180 Y3.5404
G01 X7.4087 Y3.5541
G01 X7.4253 Y3.5557
G01 X7.5170 Y3.5600
G01 X7.6087 Y3.5557
G01 X7.6253 Y3.5541
G01 X7.7078 Y3.5418
G01 X7.7241 Y3.5386
G01 X7.8131 Y3.5161
G01 X7.9073 Y3.4824
G01 X7.9978 Y3.4396
G01 X8.0766 Y3.3926
G01 X8.0905 Y3.3833
G01 X8.1575 Y3.3336
G01 X8.1704 Y3.3230
G01 X8.2382 Y3.2612
G01 X8.3000 Y3.1934
G01 X8.3106 Y3.1805
G01 X8.3651 Y3.1067
G01 X8.4166 Y3.0208
G01 X8.4594 Y2.9303
G01 X8.4905 Y2.8440
G01 X8.4953 Y2.8280
G01 X8.5174 Y2.7390
G01 X8.5311 Y2.6483
G01 X8.5327 Y2.6317
G01 X8.5368 Y2.5483
G00 Z2.0000
G00 X8.5967 Y2.5513
G01 F60.00
G01 Z-0.0700
G01 F120.00
G01 X8.5970 Y2.5400
G01 X8.5967 Y2.5287
G01 X8.5918 Y2.4341
G01 X8.5782 Y2.3404
G01 X8.5762 Y2.3293
G01 X8.5738 Y2.3183
G01 X8.5505 Y2.2265
G01 X8.5189 Y2.1372
G01 X8.5148 Y2.1267
G01 X8.5102 Y2.1164
G01 X8.4721 Y2.0359
G01 X8.4639 Y2.0211
G01 X8.4150 Y1.9400
G01 X8.3588 Y1.8638
G01 X8.3482 Y1.8505
G01 X8.2885 Y1.7845
G01 X8.2766 Y1.7724
G01 X8.2107 Y1.7125
G01 X8.2021 Y1.7051
G01 X8.1502 Y1.6663
G01 X9.4238 Y1.6663
G01 X9.3719 Y1.7051
G01 X9.3633 Y1.7125
G01 X9.2974 Y1.7724
G01 X9.2855 Y1.7845
G01 X9.2295 Y1.8463
G01 X9.2186 Y1.8593
G01 X9.1655 Y1.9308
G01 X9.1590 Y1.9400
G01 X9.1101 Y2.0211
G01 X9.1045 Y2.0309
G01 X9.0994 Y2.0410
G01 X9.0592 Y2.1267
G01 X9.0270 Y2.2158
G01 X9.0235 Y2.2265
G01 X9.0205 Y2.2374
G01 X8.9978 Y2.3293
G01 X8.9958 Y2.3404
G01 X8.9828 Y2.4285
G01 X8.9814 Y2.4454
G01 X8.9773 Y2.5287
G01 X8.9771 Y2.5456
G01 X8.9814 Y2.6346
G01 X8.9822 Y2.6459
G01 X8.9922 Y2.7152
G01 X8.9800 Y2.7065
G01 X8.9705 Y2.7004
G01 X8.9556 Y2.6923
G01 X8.9454 Y2.6874
G01 X8.9297 Y2.6811
G01 X8.9190 Y2.6776
G01 X8.9081 Y2.6746
G01 X8.8915 Y2.6711
G01 X8.8747 Y2.6688
G01 X8.8578 Y2.6678
G01 X8.7218 Y2.6677
G01 X8.7049 Y2.6683
G01 X8.6936 Y2.6694
G01 X8.6825 Y2.6711
G01 X8.6659 Y2.6746
G01 X8.6496 Y2.6793
G01 X8.6338 Y2.6852
G01 X8.6234 Y2.6898
G01 X8.6134 Y2.6949
G01 X8.5987 Y2.7034
G01 X8.5818 Y2.7152
G01 X8.5918 Y2.6459
G01 X8.5967 Y2.5513
G00 Z2.0000
G00 X11.5322 Y2.7152
G01 F60.00
G01 Z-0.0700
G01 F120.00
G01 X11.5200 Y2.7065
G01 X11.5105 Y2.7004
G01 X11.4956 Y2.6923
G01 X11.4854 Y2.6874
G01 X11.4750 Y2.6831
G01 X11.4590 Y2.6776
G01 X11.4481 Y2.6746
G01 X11.4315 Y2.6711
G01 X11.4147 Y2.6688
G01 X11.3978 Y2.6678
G01 X11.2618 Y2.6677
G01 X11.2449 Y2.6683
G01 X11.2336 Y2.6694
G01 X11.2225 Y2.6711
G01 X11.2059 Y2.6746
G01 X11.1896 Y2.6793
G01 X11.1738 Y2.6852
G01 X11.1634 Y2.6898
G01 X11.1534 Y2.6949
G01 X11.1387 Y2.7034
G01 X11.1218 Y2.7152
G01 X11.1318 Y2.6459
G01 X11.1326 Y2.6346
G01 X11.1369 Y2.5456
G01 X11.1367 Y2.5287
G01 X11.1326 Y2.4454
G01 X11.1312 Y2.4285
G01 X11.1182 Y2.3404
G01 X11.1162 Y2.3293
G01 X11.0935 Y2.2374
G01 X11.0905 Y2.2265
G01 X11.0870 Y2.2158
G01 X11.0548 Y2.1267
G01 X11.0146 Y2.0410
G01 X11.0095 Y2.0309
G01 X11.0039 Y2.0211
G01 X10.9550 Y1.9400
G01 X10.9485 Y1.9308
G01 X10.8954 Y1.8593
G01 X10.8845 Y1.8463
G01 X10.8285 Y1.7845
G01 X10.8166 Y1.7724
G01 X10.7507 Y1.7125
G01 X10.7421 Y1.7051
G01 X10.6902 Y1.6663
G01 X11.8667 Y1.6663
G01 X11.8667 Y1.7457
G01 X11.8415 Y1.7685
G01 X11.8294 Y1.7804
G01 X11.7658 Y1.8505
G01 X11.7552 Y1.8638
G01 X11.7055 Y1.9308
G01 X11.6959 Y1.9447
G01 X11.6501 Y2.0211
G01 X11.6445 Y2.0309
G01 X11.6394 Y2.0410
G01 X11.5992 Y2.1267
G01 X11.5951 Y2.1372
G01 X11.5652 Y2.2211
G01 X11.5605 Y2.2374
G01 X11.5378 Y2.3293
G01 X11.5236 Y2.4229
G01 X11.5217 Y2.4398
G01 X11.5173 Y2.5287
G01 X11.5170 Y2.5400
G01 X11.5173 Y2.5513
G01 X11.5222 Y2.6459
G01 X11.5322 Y2.7152
G00 Z2.0000
G00 X14.0722 Y2.7152
G01 F60.00
G01 Z-0.0700
G01 F120.00
G01 X14.0600 Y2.7065
G01 X14.0505 Y2.7004
G01 X14.0356 Y2.6923
G01 X14.0254 Y2.6874
G01 X14.0097 Y2.6811
G01 X13.9990 Y2.6776
G01 X13.9881 Y2.6746
G01 X13.9715 Y2.6711
G01 X13.9547 Y2.6688
G01 X13.9378 Y2.6678
G01 X13.8018 Y2.6677
G01 X13.7849 Y2.6683
G01 X13.7736 Y2.6694
G01 X13.7625 Y2.6711
G01 X13.7459 Y2.6746
G01 X13.7296 Y2.6793
G01 X13.7138 Y2.6852
G01 X13.7034 Y2.6898
G01 X13.6934 Y2.6949
G01 X13.6787 Y2.7034
G01 X13.6618 Y2.7152
G01 X13.6718 Y2.6459
G01 X13.6767 Y2.5513
G01 X13.6770 Y2.5400
G01 X13.6767 Y2.5287
G01 X13.6723 Y2.4398
G01 X13.6704 Y2.4229
G01 X13.6562 Y2.3293
G01 X13.6335 Y2.2374
G01 X13.6288 Y2.2211
G01 X13.5989 Y2.1372
G01 X13.5948 Y2.1267
G01 X13.5546 Y2.0410
G01 X13.5495 Y2.0309
G01 X13.5439 Y2.0211
G01 X13.4981 Y1.9447
G01 X13.4885 Y1.9308
G01 X13.4388 Y1.8638
G01 X13.4282 Y1.8505
G01 X13.3646 Y1.7804
G01 X13.3525 Y1.7685
G01 X13.3273 Y1.7457
G01 X13.3273 Y1.6663
G01 X14.0725 Y1.6663
G01 X14.2845 Y1.8782
G01 X14.2455 Y1.9308
G01 X14.2359 Y1.9447
G01 X14.1901 Y2.0211
G01 X14.1819 Y2.0359
G01 X14.1438 Y2.1164
G01 X14.1392 Y2.1267
G01 X14.1070 Y2.2158
G01 X14.1035 Y2.2265
G01 X14.1005 Y2.2374
G01 X14.0778 Y2.3293
G01 X14.0636 Y2.4229
G01 X14.0622 Y2.4341
G01 X14.0614 Y2.4454
G01 X14.0573 Y2.5287
G01 X14.0570 Y2.5400
G01 X14.0573 Y2.5513
G01 X14.0622 Y2.6459
G01 X14.0722 Y2.7152
G00 Z2.0000
G00 X16.2018 Y2.3648
G01 F60.00
G01 Z-0.0700
G01 F120.00
G01 X16.2140 Y2.3735
G01 X16.2235 Y2.3796
G01 X16.2384 Y2.3877
G01 X16.2486 Y2.3926
G01 X16.2590 Y2.3969
G01 X16.2750 Y2.4024
G01 X16.2914 Y2.4067
G01 X16.3025 Y2.4089
G01 X16.3193 Y2.4112
G01 X16.3362 Y2.4122
G01 X16.4722 Y2.4123
G01 X16.4891 Y2.4117
G01 X16.5060 Y2.4098
G01 X16.5171 Y2.4079
G01 X16.5281 Y2.4054
G01 X16.5444 Y2.4007
G01 X16.5602 Y2.3948
G01 X16.5706 Y2.3902
G01 X16.5806 Y2.3851
G01 X16.5953 Y2.3766
G01 X16.6122 Y2.3648
G01 X16.6022 Y2.4341
G01 X16.6014 Y2.4454
G01 X16.5970 Y2.5400
G01 X16.6014 Y2.6346
G01 X16.6022 Y2.6459
G01 X16.6122 Y2.7152
G01 X16.6000 Y2.7065
G01 X16.5905 Y2.7004
G01 X16.5806 Y2.6949
G01 X16.5654 Y2.6874
G01 X16.5550 Y2.6831
G01 X16.5390 Y2.6776
G01 X16.5226 Y2.6733
G01 X16.5115 Y2.6711
G01 X16.4947 Y2.6688
G01 X16.4778 Y2.6678
G01 X16.3418 Y2.6677
G01 X16.3249 Y2.6683
G01 X16.3080 Y2.6702
G01 X16.2969 Y2.6721
G01 X16.2859 Y2.6746
G01 X16.2696 Y2.6793
G01 X16.2538 Y2.6852
G01 X16.2434 Y2.6898
G01 X16.2334 Y2.6949
G01 X16.2187 Y2.7034
G01 X16.2018 Y2.7152
G01 X16.2118 Y2.6459
G01 X16.2126 Y2.6346
G01 X16.2170 Y2.5400
G01 X16.2126 Y2.4454
G01 X16.2118 Y2.4341
G01 X16.2018 Y2.3648
G00 Z2.0000
G00 X18.7418 Y2.7152
G01 F60.00
G01 Z-0.0700
G01 F120.00
G01 X18.7518 Y2.6459
G01 X18.7526 Y2.6346
G01 X18.7570 Y2.5400
G01 X18.7526 Y2.4454
G01 X18.7518 Y2.4341
G01 X18.7418 Y2.3648
G01 X18.7540 Y2.3735
G01 X18.7635 Y2.3796
G01 X18.7784 Y2.3877
G01 X18.7886 Y2.3926
G01 X18.7990 Y2.3969
G01 X18.8150 Y2.4024
G01 X18.8314 Y2.4067
G01 X18.8425 Y2.4089
G01 X18.8593 Y2.4112
G01 X18.8762 Y2.4122
G01 X19.0122 Y2.4123
G01 X19.0291 Y2.4117
G01 X19.0460 Y2.4098
G01 X19.0571 Y2.4079
G01 X19.0681 Y2.4054
G01 X19.0844 Y2.4007
G01 X19.1002 Y2.3948
G01 X19.1106 Y2.3902
G01 X19.1206 Y2.3851
G01 X19.1353 Y2.3766
G01 X19.1522 Y2.3648
G01 X19.1422 Y2.4341
G01 X19.1414 Y2.4454
G01 X19.1370 Y2.5400
G01 X19.1414 Y2.6346
G01 X19.1422 Y2.6459
G01 X19.1522 Y2.7152
G01 X19.1400 Y2.7065
G01 X19.1305 Y2.7004
G01 X19.1156 Y2.6923
G01 X19.1054 Y2.6874
G01 X19.0950 Y2.6831
G01 X19.0790 Y2.6776
G01 X19.0626 Y2.6733
G01 X19.0515 Y2.6711
G01 X19.0347 Y2.6688
G01 X19.0178 Y2.6678
G01 X18.8818 Y2.6677
G01 X18.8649 Y2.6683
G01 X18.8480 Y2.6702
G01 X18.8369 Y2.6721
G01 X18.8259 Y2.6746
G01 X18.8096 Y2.6793
G01 X18.7938 Y2.6852
G01 X18.7834 Y2.6898
G01 X18.7734 Y2.6949
G01 X18.7587 Y2.7034
G01 X18.7418 Y2.7152
G00 Z2.0000
G00 X21.1169 Y2.5425
G01 F60.00
G01 Z-0.0700
G01 F120.00
G01 X21.1127 Y2.6282
G01 X21.0997 Y2.7156
G01 X21.0782 Y2.8013
G01 X21.0485 Y2.8844
G01 X21.0107 Y2.9643
G01 X20.9653 Y3.0400
G01 X20.9127 Y3.1110
G01 X20.8534 Y3.1764
G01 X20.7880 Y3.2357
G01 X20.7170 Y3.2883
G01 X20.6413 Y3.3337
G01 X20.5614 Y3.3715
G01 X20.4783 Y3.4012
G01 X20.3926 Y3.4227
G01 X20.3052 Y3.4357
G01 X20.2170 Y3.4400
G01 X20.1288 Y3.4357
G01 X20.0414 Y3.4227
G01 X19.9557 Y3.4012
G01 X19.8726 Y3.3715
G01 X19.7927 Y3.3337
G01 X19.7170 Y3.2883
G01 X19.6460 Y3.2357
G01 X19.5806 Y3.1764
G01 X19.5213 Y3.1110
G01 X19.4687 Y3.0400
G01 X19.4233 Y2.9643
G01 X19.3855 Y2.8844
G01 X19.3558 Y2.8013
G01 X19.3343 Y2.7156
G01 X19.3213 Y2.6282
G01 X19.3170 Y2.5400
G01 X19.3213 Y2.4518
G01 X19.3343 Y2.3644
G01 X19.3558 Y2.2787
G01 X19.3855 Y2.1956
G01 X19.4233 Y2.1157
G01 X19.4687 Y2.0400
G01 X19.5213 Y1.9690
G01 X19.5806 Y1.9036
G01 X19.6460 Y1.8443
G01 X19.7170 Y1.7917
G01 X19.7927 Y1.7463
G01 X19.8726 Y1.7085
G01 X19.9557 Y1.6788
G01 X20.0414 Y1.6573
G01 X20.1288 Y1.6443
G01 X20.2170 Y1.6400
G01 X20.3052 Y1.6443
G01 X20.3926 Y1.6573
G01 X20.4783 Y1.6788
G01 X20.5614 Y1.7085
G01 X20.6413 Y1.7463
G01 X20.7170 Y1.7917
G01 X20.7880 Y1.8443
G01 X20.8534 Y1.9036
G01 X20.9127 Y1.9690
G01 X20.9653 Y2.0400
G01 X21.0107 Y2.1157
G01 X21.0485 Y2.1956
G01 X21.0782 Y2.2787
G01 X21.0997 Y2.3644
G01 X21.1127 Y2.4518
G01 X21.1169 Y2.5425
G00 Z2.0000
G00 X21.1769 Y2.5454
G01 F60.00
G01 Z-0.0700
G01 F120.00
G01 X21.1724 Y2.6341
G01 X21.1586 Y2.7273
G01 X21.1357 Y2.8187
G01 X21.1039 Y2.9074
G01 X21.0636 Y2.9925
G01 X21.0152 Y3.0733
G01 X20.9591 Y3.1490
G01 X20.8958 Y3.2188
G01 X20.8260 Y3.2821
G01 X20.7503 Y3.3382
G01 X20.6695 Y3.3866
G01 X20.5844 Y3.4269
G01 X20.4957 Y3.4587
G01 X20.4043 Y3.4816
G01 X20.3111 Y3.4954
G01 X20.2170 Y3.5000
G01 X20.1229 Y3.4954
G01 X20.0297 Y3.4816
G01 X19.9383 Y3.4587
G01 X19.8496 Y3.4269
G01 X19.7645 Y3.3866
G01 X19.6837 Y3.3382
G01 X19.6080 Y3.2821
G01 X19.5382 Y3.2188
G01 X19.4749 Y3.1490
G01 X19.4188 Y3.0733
G01 X19.3704 Y2.9925
G01 X19.3301 Y2.9074
G01 X19.2983 Y2.8187
G01 X19.2754 Y2.7273
G01 X19.2616 Y2.6341
G01 X19.2570 Y2.5400
G01 X19.2616 Y2.4459
G01 X19.2754 Y2.3527
G01 X19.2983 Y2.2613
G01 X19.3301 Y2.1726
G01 X19.3704 Y2.0875
G01 X19.4188 Y2.0067
G01 X19.4749 Y1.9310
G01 X19.5382 Y1.8612
G01 X19.6080 Y1.7979
G01 X19.6837 Y1.7418
G01 X19.7645 Y1.6934
G01 X19.8496 Y1.6531
G01 X19.9383 Y1.6213
G01 X20.0297 Y1.5984
G01 X20.1229 Y1.5846
G01 X20.2170 Y1.5800
G01 X20.3111 Y1.5846
G01 X20.4043 Y1.5984
G01 X20.4957 Y1.6213
G01 X20.5844 Y1.6531
G01 X20.6695 Y1.6934
G01 X20.7503 Y1.7418
G01 X20.8260 Y1.7979
G01 X20.8958 Y1.8612
G01 X20.9591 Y1.9310
G01 X21.0152 Y2.0067
G01 X21.0636 Y2.0875
G01 X21.1039 Y2.1726
G01 X21.1357 Y2.2613
G01 X21.1586 Y2.3527
G01 X21.1724 Y2.4459
G01 X21.1769 Y2.5346
G01 X21.1769 Y2.5454
G00 Z2.0000
G00 X21.2368 Y2.5483
G01 F60.00
G01 Z-0.0700
G01 F120.00
G01 X21.2321 Y2.6400
G01 X21.2174 Y2.7390
G01 X21.1931 Y2.8361
G01 X21.1594 Y2.9303
G01 X21.1166 Y3.0208
G01 X21.0651 Y3.1067
G01 X21.0055 Y3.1871
G01 X20.9382 Y3.2612
G01 X20.8641 Y3.3285
G01 X20.7837 Y3.3881
G01 X20.6978 Y3.4396
G01 X20.6073 Y3.4824
G01 X20.5131 Y3.5161
G01 X20.4160 Y3.5404
G01 X20.3170 Y3.5551
G01 X20.2170 Y3.5600
G01 X20.1170 Y3.5551
G01 X20.0180 Y3.5404
G01 X19.9209 Y3.5161
G01 X19.8267 Y3.4824
G01 X19.7362 Y3.4396
G01 X19.6503 Y3.3881
G01 X19.5699 Y3.3285
G01 X19.4958 Y3.2612
G01 X19.4285 Y3.1871
G01 X19.3689 Y3.1067
G01 X19.3174 Y3.0208
G01 X19.2746 Y2.9303
G01 X19.2409 Y2.8361
G01 X19.2166 Y2.7390
G01 X19.2019 Y2.6400
G01 X19.1970 Y2.5400
G01 X19.2019 Y2.4400
G01 X19.2166 Y2.3410
G01 X19.2409 Y2.2439
G01 X19.2746 Y2.1497
G01 X19.3174 Y2.0592
G01 X19.3689 Y1.9733
G01 X19.4285 Y1.8929
G01 X19.4958 Y1.8188
G01 X19.5699 Y1.7515
G01 X19.6503 Y1.6919
G01 X19.7362 Y1.6404
G01 X19.8267 Y1.5976
G01 X19.9209 Y1.5639
G01 X20.0180 Y1.5396
G01 X20.1170 Y1.5249
G01 X20.2170 Y1.5200
G01 X20.3170 Y1.5249
G01 X20.4160 Y1.5396
G01 X20.5131 Y1.5639
G01 X20.6073 Y1.5976
G01 X20.6978 Y1.6404
G01 X20.7837 Y1.6919
G01 X20.8641 Y1.7515
G01 X20.9382 Y1.8188
G01 X21.0055 Y1.8929
G01 X21.0651 Y1.9733
G01 X21.1166 Y2.0592
G01 X21.1594 Y2.1497
G01 X21.1931 Y2.2439
G01 X21.2174 Y2.3410
G01 X21.2321 Y2.4400
G01 X21.2368 Y2.5317
G01 X21.2368 Y2.5483
G00 Z2.0000
G00 X21.2818 Y2.7152
G01 F60.00
G01 Z-0.0700
G01 F120.00
G01 X21.2918 Y2.6459
G01 X21.2926 Y2.6346
G01 X21.2970 Y2.5400
G01 X21.2926 Y2.4454
G01 X21.2918 Y2.4341
G01 X21.2818 Y2.3648
G01 X21.2940 Y2.3735
G01 X21.3035 Y2.3796
G01 X21.3184 Y2.3877
G01 X21.3286 Y2.3926
G01 X21.3390 Y2.3969
G01 X21.3550 Y2.4024
G01 X21.3714 Y2.4067
G01 X21.3825 Y2.4089
G01 X21.3993 Y2.4112
G01 X21.4162 Y2.4122
G01 X21.5522 Y2.4123
G01 X21.5691 Y2.4117
G01 X21.5860 Y2.4098
G01 X21.5971 Y2.4079
G01 X21.6081 Y2.4054
G01 X21.6244 Y2.4007
G01 X21.6402 Y2.3948
G01 X21.6506 Y2.3902
G01 X21.6606 Y2.3851
G01 X21.6753 Y2.3766
G01 X21.6922 Y2.3648
G01 X21.6822 Y2.4341
G01 X21.6814 Y2.4454
G01 X21.6770 Y2.5400
G01 X21.6814 Y2.6346
G01 X21.6822 Y2.6459
G01 X21.6922 Y2.7152
G01 X21.6800 Y2.7065
G01 X21.6705 Y2.7004
G01 X21.6606 Y2.6949
G01 X21.6454 Y2.6874
G01 X21.6297 Y2.6811
G01 X21.6190 Y2.6776
G01 X21.6081 Y2.6746
G01 X21.5915 Y2.6711
G01 X21.5747 Y2.6688
G01 X21.5578 Y2.6678
G01 X21.4218 Y2.6677
G01 X21.4049 Y2.6683
G01 X21.3880 Y2.6702
G01 X21.3769 Y2.6721
G01 X21.3659 Y2.6746
G01 X21.3496 Y2.6793
G01 X21.3338 Y2.6852
G01 X21.3234 Y2.6898
G01 X21.3134 Y2.6949
G01 X21.2987 Y2.7034
G01 X21.2818 Y2.7152
G00 Z2.0000
G00 X24.2322 Y2.7152
G01 F60.00
G01 Z-0.0700
G01 F120.00
G01 X24.2200 Y2.7065
G01 X24.2105 Y2.7004
G01 X24.2006 Y2.6949
G01 X24.1854 Y2.6874
G01 X24.1750 Y2.6831
G01 X24.1590 Y2.6776
G01 X24.1426 Y2.6733
G01 X24.1315 Y2.6711
G01 X24.1147 Y2.6688
G01 X24.0978 Y2.6678
G01 X23.9618 Y2.6677
G01 X23.9449 Y2.6683
G01 X23.9280 Y2.6702
G01 X23.9169 Y2.6721
G01 X23.9059 Y2.6746
G01 X23.8896 Y2.6793
G01 X23.8738 Y2.6852
G01 X23.8634 Y2.6898
G01 X23.8534 Y2.6949
G01 X23.8387 Y2.7034
G01 X23.8218 Y2.7152
G01 X23.8318 Y2.6459
G01 X23.8326 Y2.6346
G01 X23.8370 Y2.5400
G01 X23.8326 Y2.4454
G01 X23.8318 Y2.4341
G01 X23.8218 Y2.3648
G01 X23.8340 Y2.3735
G01 X23.8435 Y2.3796
G01 X23.8584 Y2.3877
G01 X23.8686 Y2.3926
G01 X23.8790 Y2.3969
G01 X23.8950 Y2.4024
G01 X23.9114 Y2.4067
G01 X23.9225 Y2.4089
G01 X23.9393 Y2.4112
G01 X23.9562 Y2.4122
G01 X24.0922 Y2.4123
G01 X24.1091 Y2.4117
G01 X24.1260 Y2.4098
G01 X24.1371 Y2.4079
G01 X24.1481 Y2.4054
G01 X24.1644 Y2.4007
G01 X24.1802 Y2.3948
G01 X24.1906 Y2.3902
G01 X24.2006 Y2.3851
G01 X24.2153 Y2.3766
G01 X24.2322 Y2.3648
G01 X24.2222 Y2.4341
G01 X24.2214 Y2.4454
G01 X24.2170 Y2.5400
G01 X24.2214 Y2.6346
G01 X24.2222 Y2.6459
G01 X24.2322 Y2.7152
G00 Z2.0000
G00 X26.3618 Y2.3648
G01 F60.00
G01 Z-0.0700
G01 F120.00
G01 X26.3740 Y2.3735
G01 X26.3835 Y2.3796
G01 X26.3934 Y2.3851
G01 X26.4086 Y2.3926
G01 X26.4190 Y2.3969
G01 X26.4350 Y2.4024
G01 X26.4514 Y2.4067
G01 X26.4625 Y2.4089
G01 X26.4793 Y2.4112
G01 X26.4962 Y2.4122
G01 X26.6322 Y2.4123
G01 X26.6491 Y2.4117
G01 X26.6660 Y2.4098
G01 X26.6771 Y2.4079
G01 X26.6881 Y2.4054
G01 X26.7044 Y2.4007
G01 X26.7202 Y2.3948
G01 X26.7306 Y2.3902
G01 X26.7406 Y2.3851
G01 X26.7553 Y2.3766
G01 X26.7722 Y2.3648
G01 X26.7622 Y2.4341
G01 X26.7614 Y2.4454
G01 X26.7570 Y2.5400
G01 X26.7614 Y2.6346
G01 X26.7622 Y2.6459
G01 X26.7722 Y2.7152
G01 X26.7553 Y2.7034
G01 X26.7407 Y2.6949
G01 X26.7255 Y2.6875
G01 X26.7150 Y2.6831
G01 X26.7044 Y2.6793
G01 X26.6881 Y2.6746
G01 X26.6715 Y2.6711
G01 X26.6548 Y2.6688
G01 X26.6435 Y2.6680
G01 X26.6322 Y2.6677
G01 X26.4962 Y2.6678
G01 X26.4793 Y2.6688
G01 X26.4625 Y2.6711
G01 X26.4459 Y2.6746
G01 X26.4350 Y2.6776
G01 X26.4243 Y2.6811
G01 X26.4086 Y2.6874
G01 X26.3934 Y2.6949
G01 X26.3835 Y2.7004
G01 X26.3740 Y2.7065
G01 X26.3618 Y2.7152
G01 X26.3718 Y2.6459
G01 X26.3726 Y2.6346
G01 X26.3770 Y2.5400
G01 X26.3726 Y2.4454
G01 X26.3718 Y2.4341
G01 X26.3618 Y2.3648
G00 Z2.0000
G00 X26.9127 Y2.9691
G01 F60.00
G01 Z-0.0700
G01 F120.00
G01 X26.8980 Y2.9380
G01 X26.8931 Y2.9265
G01 X26.8622 Y2.8401
G01 X26.8587 Y2.8280
G01 X26.8375 Y2.7431
G01 X26.8352 Y2.7308
G01 X26.8219 Y2.6400
G01 X26.8171 Y2.5442
G01 X26.8172 Y2.5317
G01 X26.8219 Y2.4400
G01 X26.8366 Y2.3410
G01 X26.8609 Y2.2439
G01 X26.8931 Y2.1535
G01 X26.8980 Y2.1420
G01 X26.9374 Y2.0592
G01 X26.9889 Y1.9733
G01 X27.0485 Y1.8929
G01 X27.1158 Y1.8188
G01 X27.1899 Y1.7515
G01 X27.2703 Y1.6919
G01 X27.3562 Y1.6404
G01 X27.4428 Y1.5993
G01 X27.4544 Y1.5946
G01 X27.5409 Y1.5639
G01 X27.6380 Y1.5396
G01 X27.7370 Y1.5249
G01 X27.8370 Y1.5200
G01 X27.9370 Y1.5249
G01 X28.0360 Y1.5396
G01 X28.1331 Y1.5639
G01 X28.2273 Y1.5976
G01 X28.3178 Y1.6404
G01 X28.4037 Y1.6919
G01 X28.4841 Y1.7515
G01 X28.5582 Y1.8188
G01 X28.6255 Y1.8929
G01 X28.6851 Y1.9733
G01 X28.7366 Y2.0592
G01 X28.7777 Y2.1458
G01 X28.7824 Y2.1574
G01 X28.8131 Y2.2439
G01 X28.8374 Y2.3410
G01 X28.8521 Y2.4400
G01 X28.8570 Y2.5400
G01 X28.8521 Y2.6400
G01 X28.8374 Y2.7390
G01 X28.8131 Y2.8361
G01 X28.7809 Y2.9265
G01 X28.7760 Y2.9380
G01 X28.7366 Y3.0208
G01 X28.6851 Y3.1067
G01 X28.6255 Y3.1871
G01 X28.5612 Y3.2583
G01 X28.5522 Y3.2670
G01 X28.4841 Y3.3285
G01 X28.4071 Y3.3857
G01 X28.3966 Y3.3926
G01 X28.3178 Y3.4396
G01 X28.2533 Y3.4703
G01 X28.2533 Y19.1404
G01 X29.2706 Y20.1577
G01 X40.0054 Y20.1577
G01 X41.1267 Y19.0364
G01 X41.0901 Y18.9584
G01 X41.0444 Y18.8312
G01 X41.0409 Y18.8192
G01 X41.0111 Y18.7002
G01 X41.0085 Y18.6879
G01 X40.9888 Y18.5542
G01 X40.9822 Y18.4233
G01 X40.9822 Y18.4067
G01 X40.9885 Y18.2800
G01 X40.9899 Y18.2675
G01 X41.0093 Y18.1380
G01 X41.0409 Y18.0108
G01 X41.0458 Y17.9949
G01 X41.0901 Y17.8716
G01 X41.1459 Y17.7531
G01 X41.1538 Y17.7384
G01 X41.2168 Y17.6331
G01 X41.2237 Y17.6226
G01 X41.3043 Y17.5142
G01 X41.3922 Y17.4170
G01 X41.4040 Y17.4052
G01 X41.5012 Y17.3173
G01 X41.6063 Y17.2391
G01 X41.6201 Y17.2298
G01 X41.7254 Y17.1668
G01 X41.7401 Y17.1589
G01 X41.8586 Y17.1031
G01 X41.9898 Y17.0561
G01 X42.1250 Y17.0223
G01 X42.2545 Y17.0029
G01 X42.2711 Y17.0012
G01 X42.4020 Y16.9950
G01 X42.5412 Y17.0018
G01 X42.6790 Y17.0223
G01 X42.8062 Y17.0539
G01 X42.8221 Y17.0588
G01 X42.9376 Y17.1001
G01 X42.9530 Y17.1065
G01 X43.0714 Y17.1627
G01 X43.1839 Y17.2298
G01 X43.1977 Y17.2391
G01 X43.2963 Y17.3122
G01 X43.3092 Y17.3228
G01 X43.4061 Y17.4109
G01 X43.4997 Y17.5142
G01 X43.5779 Y17.6193
G01 X43.5872 Y17.6331
G01 X43.6543 Y17.7456
G01 X43.7105 Y17.8640
G01 X43.7169 Y17.8794
G01 X43.7582 Y17.9949
G01 X43.7631 Y18.0108
G01 X43.7947 Y18.1380
G01 X43.8152 Y18.2758
G01 X43.8218 Y18.4067
G01 X43.8218 Y18.4233
G01 X43.8152 Y18.5542
G01 X43.7947 Y18.6920
G01 X43.7631 Y18.8192
G01 X43.7582 Y18.8351
G01 X43.7139 Y18.9584
G01 X43.6543 Y19.0844
G01 X43.5872 Y19.1969
G01 X43.5779 Y19.2107
G01 X43.4997 Y19.3158
G01 X43.4061 Y19.4191
G01 X43.3028 Y19.5127
G01 X43.1977 Y19.5909
G01 X43.1839 Y19.6002
G01 X43.0714 Y19.6673
G01 X42.9530 Y19.7235
G01 X42.9376 Y19.7299
G01 X42.8221 Y19.7712
G01 X42.8062 Y19.7761
G01 X42.6790 Y19.8077
G01 X42.5412 Y19.8282
G01 X42.4103 Y19.8348
G01 X42.3978 Y19.8349
G01 X42.2670 Y19.8285
G01 X42.2587 Y19.8277
G01 X42.2347 Y19.8242
G01 X40.7569 Y21.3019
G01 X40.7145 Y21.3407
G01 X40.7016 Y21.3512
G01 X40.6588 Y21.3829
G01 X40.6483 Y21.3898
G01 X40.5990 Y21.4191
G01 X40.5395 Y21.4472
G01 X40.4855 Y21.4668
G01 X40.4695 Y21.4716
G01 X40.4138 Y21.4854
G01 X40.3528 Y21.4946
G01 X40.3404 Y21.4956
G01 X40.2830 Y21.4983
G01 X28.9888 Y21.4982
G01 X28.9273 Y21.4950
G01 X28.8622 Y21.4854
G01 X28.7984 Y21.4694
G01 X28.7365 Y21.4472
G01 X28.6770 Y21.4191
G01 X28.6206 Y21.3853
G01 X28.5678 Y21.3461
G01 X28.5191 Y21.3019
G01 X27.1091 Y19.8919
G01 X27.0676 Y19.8464
G01 X27.0598 Y19.8366
G01 X27.0305 Y19.7972
G01 X27.0212 Y19.7833
G01 X26.9919 Y19.7340
G01 X26.9638 Y19.6745
G01 X26.9416 Y19.6126
G01 X26.9275 Y19.5569
G01 X26.9242 Y19.5405
G01 X26.9160 Y19.4837
G01 X26.9127 Y19.4180
G01 X26.9127 Y2.9691
G00 Z2.0000
G00 X26.9727 Y2.9556
G01 F60.00
G01 Z-0.0700
G01 F120.00
G01 X26.9523 Y2.9123
G01 X26.9491 Y2.9049
G01 X26.9200 Y2.8238
G01 X26.9176 Y2.8161
G01 X26.8954 Y2.7273
G01 X26.8823 Y2.6395
G01 X26.8814 Y2.6314
G01 X26.8770 Y2.5400
G01 X26.8816 Y2.4459
G01 X26.8954 Y2.3527
G01 X26.9169 Y2.2665
G01 X26.9192 Y2.2588
G01 X26.9501 Y2.1726
G01 X26.9904 Y2.0875
G01 X27.0388 Y2.0067
G01 X27.0949 Y1.9310
G01 X27.1582 Y1.8612
G01 X27.2280 Y1.7979
G01 X27.3037 Y1.7418
G01 X27.3798 Y1.6960
G01 X27.3869 Y1.6921
G01 X27.4696 Y1.6531
G01 X27.5583 Y1.6213
G01 X27.6497 Y1.5984
G01 X27.7429 Y1.5846
G01 X27.8370 Y1.5800
G01 X27.9311 Y1.5846
G01 X28.0243 Y1.5984
G01 X28.1157 Y1.6213
G01 X28.2044 Y1.6531
G01 X28.2895 Y1.6934
G01 X28.3703 Y1.7418
G01 X28.4460 Y1.7979
G01 X28.5158 Y1.8612
G01 X28.5791 Y1.9310
G01 X28.6352 Y2.0067
G01 X28.6810 Y2.0828
G01 X28.6849 Y2.0899
G01 X28.7239 Y2.1726
G01 X28.7557 Y2.2613
G01 X28.7786 Y2.3527
G01 X28.7917 Y2.4405
G01 X28.7928 Y2.4513
G01 X28.7970 Y2.5400
G01 X28.7928 Y2.6287
G01 X28.7917 Y2.6395
G01 X28.7786 Y2.7273
G01 X28.7571 Y2.8135
G01 X28.7540 Y2.8238
G01 X28.7259 Y2.9023
G01 X28.7217 Y2.9123
G01 X28.6836 Y2.9925
G01 X28.6352 Y3.0733
G01 X28.5791 Y3.1490
G01 X28.5158 Y3.2188
G01 X28.4460 Y3.2821
G01 X28.3703 Y3.3382
G01 X28.2895 Y3.3866
G01 X28.2093 Y3.4247
G01 X28.1933 Y3.4310
G01 X28.1933 Y19.1652
G01 X29.2458 Y20.2177
G01 X40.0302 Y20.2177
G01 X41.1990 Y19.0489
G01 X41.1455 Y18.9354
G01 X41.1023 Y18.8149
G01 X41.0991 Y18.8046
G01 X41.0681 Y18.6803
G01 X41.0485 Y18.5483
G01 X41.0421 Y18.4204
G01 X41.0421 Y18.4096
G01 X41.0485 Y18.2817
G01 X41.0681 Y18.1497
G01 X41.0991 Y18.0254
G01 X41.1023 Y18.0151
G01 X41.1455 Y17.8946
G01 X41.2002 Y17.7787
G01 X41.2052 Y17.7692
G01 X41.2712 Y17.6594
G01 X41.3474 Y17.5565
G01 X41.3542 Y17.5481
G01 X41.4403 Y17.4533
G01 X41.5392 Y17.3637
G01 X41.6464 Y17.2842
G01 X41.7562 Y17.2182
G01 X41.7657 Y17.2132
G01 X41.8816 Y17.1585
G01 X42.0021 Y17.1153
G01 X42.0124 Y17.1121
G01 X42.1314 Y17.0823
G01 X42.1420 Y17.0802
G01 X42.2687 Y17.0615
G01 X42.3966 Y17.0551
G01 X42.4047 Y17.0550
G01 X42.5353 Y17.0615
G01 X42.6620 Y17.0802
G01 X42.6726 Y17.0823
G01 X42.7968 Y17.1136
G01 X42.9174 Y17.1566
G01 X42.9274 Y17.1607
G01 X43.0431 Y17.2156
G01 X43.1576 Y17.2842
G01 X43.2648 Y17.3637
G01 X43.3598 Y17.4496
G01 X43.3674 Y17.4572
G01 X43.4533 Y17.5522
G01 X43.5297 Y17.6550
G01 X43.5357 Y17.6640
G01 X43.6014 Y17.7739
G01 X43.6585 Y17.8946
G01 X43.7017 Y18.0151
G01 X43.7049 Y18.0254
G01 X43.7359 Y18.1497
G01 X43.7555 Y18.2817
G01 X43.7619 Y18.4096
G01 X43.7619 Y18.4204
G01 X43.7555 Y18.5483
G01 X43.7359 Y18.6803
G01 X43.7049 Y18.8046
G01 X43.7017 Y18.8149
G01 X43.6585 Y18.9354
G01 X43.6014 Y19.0561
G01 X43.5357 Y19.1660
G01 X43.5297 Y19.1750
G01 X43.4533 Y19.2778
G01 X43.3637 Y19.3767
G01 X43.2648 Y19.4663
G01 X43.1620 Y19.5427
G01 X43.1530 Y19.5487
G01 X43.0431 Y19.6144
G01 X42.9274 Y19.6693
G01 X42.9174 Y19.6734
G01 X42.7994 Y19.7156
G01 X42.7916 Y19.7179
G01 X42.6673 Y19.7489
G01 X42.5407 Y19.7678
G01 X42.5326 Y19.7687
G01 X42.4074 Y19.7749
G01 X42.3993 Y19.7750
G01 X42.2714 Y19.7687
G01 X42.2633 Y19.7678
G01 X42.2136 Y19.7604
G01 X40.7145 Y21.2595
G01 X40.6722 Y21.2980
G01 X40.6659 Y21.3031
G01 X40.6220 Y21.3354
G01 X40.5754 Y21.3635
G01 X40.5658 Y21.3686
G01 X40.5215 Y21.3896
G01 X40.5115 Y21.3937
G01 X40.4601 Y21.4120
G01 X40.4021 Y21.4265
G01 X40.3428 Y21.4353
G01 X40.2857 Y21.4382
G01 X28.9930 Y21.4383
G01 X28.9386 Y21.4357
G01 X28.9305 Y21.4350
G01 X28.8739 Y21.4265
G01 X28.8211 Y21.4134
G01 X28.8107 Y21.4103
G01 X28.7595 Y21.3918
G01 X28.7053 Y21.3662
G01 X28.6585 Y21.3383
G01 X28.6495 Y21.3323
G01 X28.6101 Y21.3031
G01 X28.6018 Y21.2962
G01 X28.5615 Y21.2595
G01 X27.1515 Y19.8495
G01 X27.1113 Y19.8051
G01 X27.0756 Y19.7570
G01 X27.0448 Y19.7057
G01 X27.0192 Y19.6515
G01 X26.9990 Y19.5951
G01 X26.9845 Y19.5371
G01 X26.9757 Y19.4778
G01 X26.9727 Y19.4180
G01 X26.9727 Y2.9556
G00 Z2.0000
G00 X27.0327 Y2.9422
G01 F60.00
G01 Z-0.0700
G01 F120.00
G01 X27.0055 Y2.8844
G01 X26.9758 Y2.8013
G01 X26.9543 Y2.7156
G01 X26.9412 Y2.6270
G01 X26.9370 Y2.5400
G01 X26.9413 Y2.4518
G01 X26.9543 Y2.3644
G01 X26.9761 Y2.2776
G01 X27.0055 Y2.1956
G01 X27.0433 Y2.1157
G01 X27.0887 Y2.0400
G01 X27.1413 Y1.9690
G01 X27.2006 Y1.9036
G01 X27.2660 Y1.8443
G01 X27.3370 Y1.7917
G01 X27.4138 Y1.7457
G01 X27.4926 Y1.7085
G01 X27.5757 Y1.6788
G01 X27.6614 Y1.6573
G01 X27.7488 Y1.6443
G01 X27.8370 Y1.6400
G01 X27.9252 Y1.6443
G01 X28.0126 Y1.6573
G01 X28.0983 Y1.6788
G01 X28.1814 Y1.7085
G01 X28.2613 Y1.7463
G01 X28.3370 Y1.7917
G01 X28.4080 Y1.8443
G01 X28.4734 Y1.9036
G01 X28.5327 Y1.9690
G01 X28.5853 Y2.0400
G01 X28.6313 Y2.1168
G01 X28.6685 Y2.1956
G01 X28.6982 Y2.2787
G01 X28.7197 Y2.3644
G01 X28.7328 Y2.4542
G01 X28.7370 Y2.5400
G01 X28.7328 Y2.6258
G01 X28.7201 Y2.7132
G01 X28.6982 Y2.8013
G01 X28.6689 Y2.8833
G01 X28.6307 Y2.9643
G01 X28.5853 Y3.0400
G01 X28.5327 Y3.1110
G01 X28.4725 Y3.1773
G01 X28.4080 Y3.2357
G01 X28.3360 Y3.2890
G01 X28.2602 Y3.3343
G01 X28.1825 Y3.3710
G01 X28.1333 Y3.3888
G01 X28.1333 Y19.1901
G01 X29.2209 Y20.2777
G01 X40.0551 Y20.2777
G01 X41.2740 Y19.0588
G01 X41.2549 Y19.0267
G01 X41.2005 Y18.9113
G01 X41.1580 Y18.7924
G01 X41.1272 Y18.6698
G01 X41.1081 Y18.5400
G01 X41.1020 Y18.4150
G01 X41.1082 Y18.2888
G01 X41.1275 Y18.1590
G01 X41.1580 Y18.0376
G01 X41.2010 Y17.9175
G01 X41.2567 Y17.8000
G01 X41.3211 Y17.6928
G01 X41.3956 Y17.5922
G01 X41.4828 Y17.4958
G01 X41.5773 Y17.4101
G01 X41.6798 Y17.3341
G01 X41.7914 Y17.2674
G01 X41.9045 Y17.2140
G01 X42.0223 Y17.1717
G01 X42.1460 Y17.1405
G01 X42.2746 Y17.1213
G01 X42.4020 Y17.1150
G01 X42.5294 Y17.1213
G01 X42.6532 Y17.1396
G01 X42.7794 Y17.1710
G01 X42.9017 Y17.2150
G01 X43.0148 Y17.2685
G01 X43.1242 Y17.3341
G01 X43.2267 Y17.4101
G01 X43.3195 Y17.4941
G01 X43.4069 Y17.5903
G01 X43.4842 Y17.6948
G01 X43.5485 Y17.8022
G01 X43.6030 Y17.9175
G01 X43.6467 Y18.0400
G01 X43.6770 Y18.1614
G01 X43.6957 Y18.2876
G01 X43.7019 Y18.4175
G01 X43.6957 Y18.5424
G01 X43.6770 Y18.6686
G01 X43.6453 Y18.7947
G01 X43.6030 Y18.9125
G01 X43.5485 Y19.0278
G01 X43.4815 Y19.1392
G01 X43.4069 Y19.2397
G01 X43.3212 Y19.3342
G01 X43.2267 Y19.4199
G01 X43.1222 Y19.4972
G01 X43.0148 Y19.5615
G01 X42.9017 Y19.6150
G01 X42.7805 Y19.6587
G01 X42.6556 Y19.6900
G01 X42.5282 Y19.7088
G01 X42.4008 Y19.7150
G01 X42.2746 Y19.7087
G01 X42.1925 Y19.6966
G01 X40.6721 Y21.2171
G01 X40.6330 Y21.2526
G01 X40.5887 Y21.2855
G01 X40.5445 Y21.3121
G01 X40.4913 Y21.3372
G01 X40.4427 Y21.3546
G01 X40.3903 Y21.3677
G01 X40.3369 Y21.3756
G01 X40.2842 Y21.3782
G01 X28.9930 Y21.3783
G01 X28.9378 Y21.3755
G01 X28.8857 Y21.3677
G01 X28.8356 Y21.3552
G01 X28.7824 Y21.3364
G01 X28.7336 Y21.3133
G01 X28.6894 Y21.2868
G01 X28.6421 Y21.2517
G01 X28.6039 Y21.2171
G01 X27.1939 Y19.8071
G01 X27.1577 Y19.7671
G01 X27.1255 Y19.7237
G01 X27.0977 Y19.6774
G01 X27.0746 Y19.6286
G01 X27.0564 Y19.5777
G01 X27.0433 Y19.5253
G01 X27.0354 Y19.4719
G01 X27.0327 Y19.4180
G01 X27.0327 Y2.9422
G00 Z2.0000
G00 X29.1722 Y2.3523
G01 F60.00
G01 Z-0.0700
G01 F120.00
G01 X29.0376 Y2.3522
G01 X29.0210 Y2.3510
G01 X29.0086 Y2.3490
G01 X28.9965 Y2.3461
G01 X28.9885 Y2.3437
G01 X28.9767 Y2.3394
G01 X28.9654 Y2.3341
G01 X28.9544 Y2.3281
G01 X28.9439 Y2.3213
G01 X28.9339 Y2.3137
G01 X28.9246 Y2.3054
G01 X28.9131 Y2.2933
G01 X28.9052 Y2.2835
G01 X28.8960 Y2.2697
G01 X28.8881 Y2.2550
G01 X28.7804 Y1.9953
G01 X28.6073 Y1.7697
G01 X28.3817 Y1.5966
G01 X28.1189 Y1.4878
G01 X27.8370 Y1.4507
G01 X27.5551 Y1.4878
G01 X27.2923 Y1.5966
G01 X27.0667 Y1.7697
G01 X26.8936 Y1.9953
G01 X26.7876 Y2.2512
G01 X26.7801 Y2.2661
G01 X26.7758 Y2.2732
G01 X26.7688 Y2.2835
G01 X26.7582 Y2.2964
G01 X26.7464 Y2.3082
G01 X26.7368 Y2.3163
G01 X26.7301 Y2.3213
G01 X26.7160 Y2.3302
G01 X26.7011 Y2.3377
G01 X26.6934 Y2.3409
G01 X26.6816 Y2.3450
G01 X26.6735 Y2.3472
G01 X26.6613 Y2.3498
G01 X26.6447 Y2.3518
G01 X26.6322 Y2.3523
G01 X26.5018 Y2.3523
G01 X26.4893 Y2.3518
G01 X26.4727 Y2.3498
G01 X26.4605 Y2.3472
G01 X26.4485 Y2.3437
G01 X26.4367 Y2.3394
G01 X26.4254 Y2.3341
G01 X26.4144 Y2.3281
G01 X26.4039 Y2.3213
G01 X26.3939 Y2.3137
G01 X26.3846 Y2.3054
G01 X26.3731 Y2.2933
G01 X26.3652 Y2.2835
G01 X26.3560 Y2.2697
G01 X26.3481 Y2.2550
G01 X26.2404 Y1.9953
G01 X26.0673 Y1.7697
G01 X25.8417 Y1.5966
G01 X25.5789 Y1.4878
G01 X25.2970 Y1.4507
G01 X25.0151 Y1.4878
G01 X24.7523 Y1.5966
G01 X24.5267 Y1.7697
G01 X24.3536 Y1.9953
G01 X24.2476 Y2.2512
G01 X24.2401 Y2.2661
G01 X24.2312 Y2.2802
G01 X24.2209 Y2.2933
G01 X24.2124 Y2.3025
G01 X24.2064 Y2.3082
G01 X24.1968 Y2.3163
G01 X24.1901 Y2.3213
G01 X24.1760 Y2.3302
G01 X24.1611 Y2.3377
G01 X24.1534 Y2.3409
G01 X24.1416 Y2.3450
G01 X24.1254 Y2.3490
G01 X24.1089 Y2.3515
G01 X24.0922 Y2.3523
G01 X23.9618 Y2.3523
G01 X23.9493 Y2.3518
G01 X23.9327 Y2.3498
G01 X23.9205 Y2.3472
G01 X23.9085 Y2.3437
G01 X23.8967 Y2.3394
G01 X23.8854 Y2.3341
G01 X23.8744 Y2.3281
G01 X23.8639 Y2.3213
G01 X23.8539 Y2.3137
G01 X23.8446 Y2.3054
G01 X23.8331 Y2.2933
G01 X23.8252 Y2.2835
G01 X23.8160 Y2.2697
G01 X23.8081 Y2.2550
G01 X23.7004 Y1.9953
G01 X23.5273 Y1.7697
G01 X23.3017 Y1.5966
G01 X23.0389 Y1.4878
G01 X22.7570 Y1.4507
G01 X22.4751 Y1.4878
G01 X22.2123 Y1.5966
G01 X21.9867 Y1.7697
G01 X21.8136 Y1.9953
G01 X21.7076 Y2.2512
G01 X21.7001 Y2.2661
G01 X21.6912 Y2.2802
G01 X21.6809 Y2.2933
G01 X21.6694 Y2.3054
G01 X21.6568 Y2.3163
G01 X21.6432 Y2.3259
G01 X21.6286 Y2.3341
G01 X21.6134 Y2.3409
G01 X21.6016 Y2.3450
G01 X21.5935 Y2.3472
G01 X21.5771 Y2.3505
G01 X21.5647 Y2.3518
G01 X21.5522 Y2.3523
G01 X21.4218 Y2.3523
G01 X21.4093 Y2.3518
G01 X21.3969 Y2.3505
G01 X21.3845 Y2.3482
G01 X21.3724 Y2.3450
G01 X21.3606 Y2.3409
G01 X21.3491 Y2.3360
G01 X21.3380 Y2.3302
G01 X21.3273 Y2.3236
G01 X21.3172 Y2.3163
G01 X21.3076 Y2.3082
G01 X21.2958 Y2.2964
G01 X21.2852 Y2.2835
G01 X21.2760 Y2.2697
G01 X21.2681 Y2.2550
G01 X21.1604 Y1.9953
G01 X20.9873 Y1.7697
G01 X20.7617 Y1.5966
G01 X20.4989 Y1.4878
G01 X20.2170 Y1.4507
G01 X19.9351 Y1.4878
G01 X19.6723 Y1.5966
G01 X19.4467 Y1.7697
G01 X19.2736 Y1.9953
G01 X19.1659 Y2.2550
G01 X19.1580 Y2.2697
G01 X19.1488 Y2.2835
G01 X19.1382 Y2.2964
G01 X19.1264 Y2.3082
G01 X19.1168 Y2.3163
G01 X19.1067 Y2.3236
G01 X19.0960 Y2.3302
G01 X19.0849 Y2.3360
G01 X19.0734 Y2.3409
G01 X19.0616 Y2.3450
G01 X19.0495 Y2.3482
G01 X19.0371 Y2.3505
G01 X19.0247 Y2.3518
G01 X19.0122 Y2.3523
G01 X18.8818 Y2.3523
G01 X18.8735 Y2.3521
G01 X18.8610 Y2.3510
G01 X18.8445 Y2.3482
G01 X18.8324 Y2.3450
G01 X18.8167 Y2.3394
G01 X18.8017 Y2.3322
G01 X18.7873 Y2.3236
G01 X18.7772 Y2.3163
G01 X18.7646 Y2.3054
G01 X18.7531 Y2.2933
G01 X18.7428 Y2.2802
G01 X18.7339 Y2.2661
G01 X18.7264 Y2.2512
G01 X18.6204 Y1.9953
G01 X18.4473 Y1.7697
G01 X18.2217 Y1.5966
G01 X17.9589 Y1.4878
G01 X17.6770 Y1.4507
G01 X17.3951 Y1.4878
G01 X17.1323 Y1.5966
G01 X16.9067 Y1.7697
G01 X16.7336 Y1.9953
G01 X16.6259 Y2.2550
G01 X16.6180 Y2.2697
G01 X16.6088 Y2.2835
G01 X16.5982 Y2.2964
G01 X16.5864 Y2.3082
G01 X16.5768 Y2.3163
G01 X16.5667 Y2.3236
G01 X16.5560 Y2.3302
G01 X16.5449 Y2.3360
G01 X16.5334 Y2.3409
G01 X16.5216 Y2.3450
G01 X16.5095 Y2.3482
G01 X16.4971 Y2.3505
G01 X16.4847 Y2.3518
G01 X16.4722 Y2.3523
G01 X16.3418 Y2.3523
G01 X16.3293 Y2.3518
G01 X16.3169 Y2.3505
G01 X16.3005 Y2.3472
G01 X16.2885 Y2.3437
G01 X16.2806 Y2.3409
G01 X16.2654 Y2.3341
G01 X16.2508 Y2.3259
G01 X16.2372 Y2.3163
G01 X16.2246 Y2.3054
G01 X16.2131 Y2.2933
G01 X16.2028 Y2.2802
G01 X16.1939 Y2.2661
G01 X16.1864 Y2.2512
G01 X16.0804 Y1.9953
G01 X15.9054 Y1.7673
G01 X15.8958 Y1.7534
G01 X15.8895 Y1.7423
G01 X15.8841 Y1.7308
G01 X15.8795 Y1.7190
G01 X15.8758 Y1.7068
G01 X15.8731 Y1.6944
G01 X15.8482 Y1.5075
G01 X15.7747 Y1.3298
G01 X15.6508 Y1.1684
G01 X14.9046 Y0.4222
G01 X14.7431 Y0.2984
G01 X14.7047 Y0.2824
G01 X14.6972 Y0.2788
G01 X14.6862 Y0.2728
G01 X14.6757 Y0.2659
G01 X14.6658 Y0.2584
G01 X14.6564 Y0.2501
G01 X14.6505 Y0.2442
G01 X14.6449 Y0.2380
G01 X14.6371 Y0.2282
G01 X14.6323 Y0.2214
G01 X14.6257 Y0.2107
G01 X14.6218 Y0.2034
G01 X14.6166 Y0.1920
G01 X14.6110 Y0.1763
G01 X14.6070 Y0.1601
G01 X14.6050 Y0.1478
G01 X14.6042 Y0.1394
G01 X14.6037 Y0.1311
G01 X14.6039 Y0.1186
G01 X14.6055 Y0.1020
G01 X14.6323 Y-0.0332
G01 X14.6352 Y-0.0454
G01 X14.6404 Y-0.0612
G01 X14.6453 Y-0.0727
G01 X14.6511 Y-0.0838
G01 X14.6600 Y-0.0979
G01 X14.6650 Y-0.1046
G01 X14.6731 Y-0.1142
G01 X14.6788 Y-0.1202
G01 X14.6880 Y-0.1287
G01 X14.6944 Y-0.1340
G01 X14.7046 Y-0.1414
G01 X14.7189 Y-0.1499
G01 X14.7340 Y-0.1571
G01 X14.7417 Y-0.1601
G01 X14.7537 Y-0.1638
G01 X14.7618 Y-0.1659
G01 X14.7741 Y-0.1682
G01 X14.7865 Y-0.1695
G01 X14.7948 Y-0.1699
G01 X30.6681 Y-0.1700
G01 X30.6806 Y-0.1695
G01 X30.6931 Y-0.1682
G01 X30.7054 Y-0.1659
G01 X30.7175 Y-0.1627
G01 X30.7293 Y-0.1586
G01 X30.7408 Y-0.1537
G01 X30.7519 Y-0.1479
G01 X30.7591 Y-0.1436
G01 X30.7727 Y-0.1340
G01 X30.7854 Y-0.1231
G01 X30.7969 Y-0.1110
G01 X30.8071 Y-0.0978
G01 X30.8160 Y-0.0837
G01 X30.8235 Y-0.0688
G01 X30.8295 Y-0.0533
G01 X30.8340 Y-0.0372
G01 X30.8608 Y0.0980
G01 X30.8625 Y0.1104
G01 X30.8633 Y0.1271
G01 X30.8628 Y0.1396
G01 X30.8615 Y0.1520
G01 X30.8592 Y0.1643
G01 X30.8560 Y0.1764
G01 X30.8534 Y0.1843
G01 X30.8487 Y0.1959
G01 X30.8432 Y0.2071
G01 X30.8369 Y0.2179
G01 X30.8273 Y0.2316
G01 X30.8164 Y0.2442
G01 X30.8044 Y0.2557
G01 X30.7946 Y0.2635
G01 X30.7843 Y0.2706
G01 X30.7698 Y0.2788
G01 X30.7584 Y0.2840
G01 X30.7239 Y0.2984
G01 X30.5624 Y0.4222
G01 X29.8632 Y1.1214
G01 X29.7394 Y1.2828
G01 X29.6658 Y1.4605
G01 X29.6392 Y1.6622
G01 X29.6388 Y1.6821
G01 X29.6368 Y1.6984
G01 X29.6332 Y1.7145
G01 X29.6295 Y1.7263
G01 X29.6233 Y1.7415
G01 X29.6176 Y1.7526
G01 X29.6112 Y1.7631
G01 X29.6041 Y1.7732
G01 X29.4336 Y1.9953
G01 X29.3276 Y2.2512
G01 X29.3201 Y2.2661
G01 X29.3158 Y2.2732
G01 X29.3088 Y2.2835
G01 X29.3009 Y2.2933
G01 X29.2953 Y2.2995
G01 X29.2894 Y2.3054
G01 X29.2801 Y2.3137
G01 X29.2701 Y2.3213
G01 X29.2632 Y2.3259
G01 X29.2486 Y2.3341
G01 X29.2334 Y2.3409
G01 X29.2216 Y2.3450
G01 X29.2135 Y2.3472
G01 X29.2013 Y2.3498
G01 X29.1930 Y2.3510
G01 X29.1847 Y2.3518
G01 X29.1722 Y2.3523
G00 Z2.0000
G00 X29.1722 Y2.2923
G01 F60.00
G01 Z-0.0700
G01 F120.00
G01 X29.0418 Y2.2923
G01 X29.0337 Y2.2920
G01 X29.0257 Y2.2911
G01 X29.0177 Y2.2896
G01 X29.0099 Y2.2876
G01 X29.0022 Y2.2849
G01 X28.9923 Y2.2806
G01 X28.9852 Y2.2766
G01 X28.9785 Y2.2722
G01 X28.9720 Y2.2673
G01 X28.9640 Y2.2601
G01 X28.9568 Y2.2521
G01 X28.9503 Y2.2434
G01 X28.9448 Y2.2341
G01 X28.9412 Y2.2269
G01 X28.8328 Y1.9651
G01 X28.6500 Y1.7270
G01 X28.4119 Y1.5442
G01 X28.1346 Y1.4294
G01 X27.8370 Y1.3902
G01 X27.5394 Y1.4294
G01 X27.2621 Y1.5442
G01 X27.0240 Y1.7270
G01 X26.8412 Y1.9651
G01 X26.7338 Y2.2244
G01 X26.7292 Y2.2341
G01 X26.7237 Y2.2434
G01 X26.7172 Y2.2521
G01 X26.7081 Y2.2620
G01 X26.6977 Y2.2706
G01 X26.6864 Y2.2780
G01 X26.6768 Y2.2829
G01 X26.6641 Y2.2876
G01 X26.6510 Y2.2907
G01 X26.6403 Y2.2920
G01 X26.6322 Y2.2923
G01 X26.5018 Y2.2923
G01 X26.4937 Y2.2920
G01 X26.4857 Y2.2911
G01 X26.4777 Y2.2896
G01 X26.4699 Y2.2876
G01 X26.4622 Y2.2849
G01 X26.4523 Y2.2806
G01 X26.4452 Y2.2766
G01 X26.4385 Y2.2722
G01 X26.4320 Y2.2673
G01 X26.4259 Y2.2620
G01 X26.4185 Y2.2541
G01 X26.4119 Y2.2456
G01 X26.4061 Y2.2365
G01 X26.4012 Y2.2269
G01 X26.2928 Y1.9651
G01 X26.1100 Y1.7270
G01 X25.8719 Y1.5442
G01 X25.5946 Y1.4294
G01 X25.2970 Y1.3902
G01 X24.9994 Y1.4294
G01 X24.7221 Y1.5442
G01 X24.4840 Y1.7270
G01 X24.3012 Y1.9651
G01 X24.1938 Y2.2244
G01 X24.1892 Y2.2341
G01 X24.1837 Y2.2434
G01 X24.1772 Y2.2521
G01 X24.1681 Y2.2620
G01 X24.1599 Y2.2690
G01 X24.1488 Y2.2766
G01 X24.1392 Y2.2817
G01 X24.1267 Y2.2867
G01 X24.1163 Y2.2896
G01 X24.1030 Y2.2918
G01 X24.0922 Y2.2923
G01 X23.9618 Y2.2923
G01 X23.9537 Y2.2920
G01 X23.9457 Y2.2911
G01 X23.9377 Y2.2896
G01 X23.9299 Y2.2876
G01 X23.9222 Y2.2849
G01 X23.9123 Y2.2806
G01 X23.9052 Y2.2766
G01 X23.8985 Y2.2722
G01 X23.8920 Y2.2673
G01 X23.8859 Y2.2620
G01 X23.8785 Y2.2541
G01 X23.8719 Y2.2456
G01 X23.8661 Y2.2365
G01 X23.8612 Y2.2269
G01 X23.7528 Y1.9651
G01 X23.5700 Y1.7270
G01 X23.3319 Y1.5442
G01 X23.0546 Y1.4294
G01 X22.7570 Y1.3902
G01 X22.4594 Y1.4294
G01 X22.1821 Y1.5442
G01 X21.9440 Y1.7270
G01 X21.7612 Y1.9651
G01 X21.6538 Y2.2244
G01 X21.6492 Y2.2341
G01 X21.6437 Y2.2434
G01 X21.6372 Y2.2521
G01 X21.6281 Y2.2620
G01 X21.6199 Y2.2690
G01 X21.6111 Y2.2752
G01 X21.6017 Y2.2806
G01 X21.5918 Y2.2849
G01 X21.5815 Y2.2883
G01 X21.5683 Y2.2911
G01 X21.5603 Y2.2920
G01 X21.5522 Y2.2923
G01 X21.4218 Y2.2923
G01 X21.4083 Y2.2915
G01 X21.3977 Y2.2896
G01 X21.3899 Y2.2876
G01 X21.3822 Y2.2849
G01 X21.3748 Y2.2817
G01 X21.3652 Y2.2766
G01 X21.3585 Y2.2722
G01 X21.3520 Y2.2673
G01 X21.3459 Y2.2620
G01 X21.3385 Y2.2541
G01 X21.3319 Y2.2456
G01 X21.3261 Y2.2365
G01 X21.3212 Y2.2269
G01 X21.2128 Y1.9651
G01 X21.0300 Y1.7270
G01 X20.7919 Y1.5442
G01 X20.5146 Y1.4294
G01 X20.2170 Y1.3902
G01 X19.9194 Y1.4294
G01 X19.6421 Y1.5442
G01 X19.4040 Y1.7270
G01 X19.2212 Y1.9651
G01 X19.1128 Y2.2269
G01 X19.1079 Y2.2365
G01 X19.1021 Y2.2456
G01 X19.0955 Y2.2541
G01 X19.0881 Y2.2620
G01 X19.0820 Y2.2673
G01 X19.0755 Y2.2722
G01 X19.0664 Y2.2780
G01 X19.0592 Y2.2817
G01 X19.0518 Y2.2849
G01 X19.0441 Y2.2876
G01 X19.0363 Y2.2896
G01 X19.0257 Y2.2915
G01 X19.0122 Y2.2923
G01 X18.8818 Y2.2923
G01 X18.8683 Y2.2915
G01 X18.8577 Y2.2896
G01 X18.8473 Y2.2867
G01 X18.8372 Y2.2829
G01 X18.8276 Y2.2780
G01 X18.8185 Y2.2722
G01 X18.8099 Y2.2656
G01 X18.8021 Y2.2581
G01 X18.7951 Y2.2500
G01 X18.7903 Y2.2434
G01 X18.7848 Y2.2341
G01 X18.7802 Y2.2244
G01 X18.6728 Y1.9651
G01 X18.4900 Y1.7270
G01 X18.2519 Y1.5442
G01 X17.9746 Y1.4294
G01 X17.6770 Y1.3902
G01 X17.3794 Y1.4294
G01 X17.1021 Y1.5442
G01 X16.8640 Y1.7270
G01 X16.6812 Y1.9651
G01 X16.5728 Y2.2269
G01 X16.5679 Y2.2365
G01 X16.5621 Y2.2456
G01 X16.5555 Y2.2541
G01 X16.5481 Y2.2620
G01 X16.5420 Y2.2673
G01 X16.5355 Y2.2722
G01 X16.5264 Y2.2780
G01 X16.5192 Y2.2817
G01 X16.5118 Y2.2849
G01 X16.5041 Y2.2876
G01 X16.4963 Y2.2896
G01 X16.4857 Y2.2915
G01 X16.4722 Y2.2923
G01 X16.3418 Y2.2923
G01 X16.3337 Y2.2920
G01 X16.3257 Y2.2911
G01 X16.3125 Y2.2883
G01 X16.3022 Y2.2849
G01 X16.2923 Y2.2806
G01 X16.2829 Y2.2752
G01 X16.2741 Y2.2690
G01 X16.2659 Y2.2620
G01 X16.2568 Y2.2521
G01 X16.2503 Y2.2434
G01 X16.2448 Y2.2341
G01 X16.2402 Y2.2244
G01 X16.1328 Y1.9651
G01 X15.9530 Y1.7308
G01 X15.9468 Y1.7217
G01 X15.9415 Y1.7122
G01 X15.9382 Y1.7046
G01 X15.9354 Y1.6969
G01 X15.9332 Y1.6890
G01 X15.9316 Y1.6809
G01 X15.9066 Y1.4918
G01 X15.8271 Y1.2996
G01 X15.6960 Y1.1288
G01 X14.9442 Y0.3770
G01 X14.7734 Y0.2460
G01 X14.7315 Y0.2286
G01 X14.7218 Y0.2240
G01 X14.7148 Y0.2199
G01 X14.7081 Y0.2153
G01 X14.7018 Y0.2103
G01 X14.6959 Y0.2047
G01 X14.6870 Y0.1946
G01 X14.6807 Y0.1858
G01 X14.6742 Y0.1740
G01 X14.6692 Y0.1615
G01 X14.6658 Y0.1484
G01 X14.6640 Y0.1351
G01 X14.6638 Y0.1216
G01 X14.6649 Y0.1108
G01 X14.6917 Y-0.0241
G01 X14.6946 Y-0.0345
G01 X14.6974 Y-0.0421
G01 X14.7008 Y-0.0495
G01 X14.7047 Y-0.0566
G01 X14.7123 Y-0.0677
G01 X14.7212 Y-0.0778
G01 X14.7313 Y-0.0867
G01 X14.7379 Y-0.0915
G01 X14.7448 Y-0.0957
G01 X14.7569 Y-0.1016
G01 X14.7697 Y-0.1060
G01 X14.7829 Y-0.1088
G01 X14.7963 Y-0.1100
G01 X30.6681 Y-0.1100
G01 X30.6762 Y-0.1097
G01 X30.6842 Y-0.1088
G01 X30.6922 Y-0.1073
G01 X30.7000 Y-0.1053
G01 X30.7077 Y-0.1026
G01 X30.7151 Y-0.0994
G01 X30.7223 Y-0.0957
G01 X30.7292 Y-0.0914
G01 X30.7379 Y-0.0850
G01 X30.7459 Y-0.0778
G01 X30.7532 Y-0.0698
G01 X30.7596 Y-0.0611
G01 X30.7651 Y-0.0518
G01 X30.7697 Y-0.0421
G01 X30.7734 Y-0.0319
G01 X30.7760 Y-0.0214
G01 X30.8012 Y0.1056
G01 X30.8025 Y0.1136
G01 X30.8032 Y0.1216
G01 X30.8033 Y0.1297
G01 X30.8028 Y0.1378
G01 X30.8017 Y0.1458
G01 X30.7993 Y0.1564
G01 X30.7969 Y0.1641
G01 X30.7939 Y0.1716
G01 X30.7903 Y0.1788
G01 X30.7848 Y0.1881
G01 X30.7783 Y0.1968
G01 X30.7711 Y0.2048
G01 X30.7631 Y0.2120
G01 X30.7567 Y0.2169
G01 X30.7476 Y0.2227
G01 X30.7404 Y0.2264
G01 X30.6936 Y0.2460
G01 X30.5228 Y0.3770
G01 X29.8180 Y1.0818
G01 X29.6870 Y1.2526
G01 X29.6074 Y1.4448
G01 X29.5792 Y1.6582
G01 X29.5791 Y1.6750
G01 X29.5780 Y1.6856
G01 X29.5766 Y1.6935
G01 X29.5746 Y1.7013
G01 X29.5710 Y1.7113
G01 X29.5677 Y1.7186
G01 X29.5625 Y1.7279
G01 X29.5565 Y1.7367
G01 X29.3812 Y1.9651
G01 X29.2738 Y2.2244
G01 X29.2692 Y2.2341
G01 X29.2621 Y2.2456
G01 X29.2537 Y2.2562
G01 X29.2441 Y2.2656
G01 X29.2333 Y2.2738
G01 X29.2217 Y2.2806
G01 X29.2093 Y2.2859
G01 X29.1963 Y2.2896
G01 X29.1830 Y2.2918
G01 X29.1722 Y2.2923
G00 Z2.0000
G00 X29.1722 Y2.2323
G01 F60.00
G01 Z-0.0700
G01 F120.00
G01 X29.0369 Y2.2321
G01 X29.0285 Y2.2305
G01 X29.0204 Y2.2275
G01 X29.0130 Y2.2232
G01 X29.0064 Y2.2177
G01 X29.0002 Y2.2101
G01 X28.9961 Y2.2026
G01 X28.8852 Y1.9348
G01 X28.6928 Y1.6842
G01 X28.4422 Y1.4918
G01 X28.1502 Y1.3709
G01 X27.8370 Y1.3296
G01 X27.5238 Y1.3709
G01 X27.2318 Y1.4918
G01 X26.9812 Y1.6842
G01 X26.7888 Y1.9348
G01 X26.6769 Y2.2048
G01 X26.6738 Y2.2101
G01 X26.6693 Y2.2159
G01 X26.6649 Y2.2202
G01 X26.6600 Y2.2239
G01 X26.6547 Y2.2270
G01 X26.6490 Y2.2294
G01 X26.6420 Y2.2313
G01 X26.6359 Y2.2322
G01 X26.4981 Y2.2322
G01 X26.4896 Y2.2308
G01 X26.4815 Y2.2280
G01 X26.4740 Y2.2239
G01 X26.4664 Y2.2177
G01 X26.4602 Y2.2101
G01 X26.4561 Y2.2026
G01 X26.3452 Y1.9348
G01 X26.1528 Y1.6842
G01 X25.9022 Y1.4918
G01 X25.6102 Y1.3709
G01 X25.2970 Y1.3296
G01 X24.9838 Y1.3709
G01 X24.6918 Y1.4918
G01 X24.4412 Y1.6842
G01 X24.2488 Y1.9348
G01 X24.1369 Y2.2048
G01 X24.1338 Y2.2101
G01 X24.1301 Y2.2150
G01 X24.1258 Y2.2193
G01 X24.1210 Y2.2232
G01 X24.1147 Y2.2270
G01 X24.1090 Y2.2294
G01 X24.1032 Y2.2311
G01 X24.0971 Y2.2321
G01 X23.9581 Y2.2322
G01 X23.9485 Y2.2305
G01 X23.9404 Y2.2275
G01 X23.9330 Y2.2232
G01 X23.9264 Y2.2177
G01 X23.9202 Y2.2101
G01 X23.9161 Y2.2026
G01 X23.8052 Y1.9348
G01 X23.6128 Y1.6842
G01 X23.3622 Y1.4918
G01 X23.0702 Y1.3709
G01 X22.7570 Y1.3296
G01 X22.4438 Y1.3709
G01 X22.1518 Y1.4918
G01 X21.9012 Y1.6842
G01 X21.7088 Y1.9348
G01 X21.5969 Y2.2048
G01 X21.5938 Y2.2101
G01 X21.5909 Y2.2140
G01 X21.5867 Y2.2185
G01 X21.5820 Y2.2225
G01 X21.5768 Y2.2258
G01 X21.5713 Y2.2285
G01 X21.5655 Y2.2305
G01 X21.5595 Y2.2318
G01 X21.5522 Y2.2323
G01 X21.4181 Y2.2322
G01 X21.4085 Y2.2305
G01 X21.4004 Y2.2275
G01 X21.3930 Y2.2232
G01 X21.3864 Y2.2177
G01 X21.3802 Y2.2101
G01 X21.3761 Y2.2026
G01 X21.2652 Y1.9348
G01 X21.0728 Y1.6842
G01 X20.8222 Y1.4918
G01 X20.5302 Y1.3709
G01 X20.2170 Y1.3296
G01 X19.9038 Y1.3709
G01 X19.6118 Y1.4918
G01 X19.3612 Y1.6842
G01 X19.1688 Y1.9348
G01 X19.0579 Y2.2026
G01 X19.0538 Y2.2101
G01 X19.0476 Y2.2177
G01 X19.0410 Y2.2232
G01 X19.0325 Y2.2280
G01 X19.0244 Y2.2308
G01 X19.0159 Y2.2322
G01 X18.8818 Y2.2323
G01 X18.8757 Y2.2319
G01 X18.8708 Y2.2311
G01 X18.8650 Y2.2294
G01 X18.8604 Y2.2275
G01 X18.8561 Y2.2252
G01 X18.8510 Y2.2217
G01 X18.8464 Y2.2177
G01 X18.8431 Y2.2140
G01 X18.8402 Y2.2101
G01 X18.8371 Y2.2048
G01 X18.7252 Y1.9348
G01 X18.5328 Y1.6842
G01 X18.2822 Y1.4918
G01 X17.9902 Y1.3709
G01 X17.6770 Y1.3296
G01 X17.3638 Y1.3709
G01 X17.0718 Y1.4918
G01 X16.8212 Y1.6842
G01 X16.6288 Y1.9348
G01 X16.5179 Y2.2026
G01 X16.5138 Y2.2101
G01 X16.5076 Y2.2177
G01 X16.5010 Y2.2232
G01 X16.4925 Y2.2280
G01 X16.4844 Y2.2308
G01 X16.4759 Y2.2322
G01 X16.3418 Y2.2323
G01 X16.3345 Y2.2318
G01 X16.3285 Y2.2305
G01 X16.3227 Y2.2285
G01 X16.3172 Y2.2258
G01 X16.3120 Y2.2225
G01 X16.3073 Y2.2185
G01 X16.3031 Y2.2140
G01 X16.2996 Y2.2090
G01 X16.2971 Y2.2048
G01 X16.1852 Y1.9348
G01 X16.0006 Y1.6942
G01 X15.9978 Y1.6901
G01 X15.9949 Y1.6847
G01 X15.9923 Y1.6777
G01 X15.9907 Y1.6703
G01 X15.9651 Y1.4762
G01 X15.8795 Y1.2693
G01 X15.7412 Y1.0891
G01 X14.9839 Y0.3318
G01 X14.8037 Y0.1936
G01 X14.7534 Y0.1727
G01 X14.7480 Y0.1699
G01 X14.7420 Y0.1656
G01 X14.7375 Y0.1615
G01 X14.7335 Y0.1568
G01 X14.7296 Y0.1506
G01 X14.7270 Y0.1450
G01 X14.7249 Y0.1379
G01 X14.7239 Y0.1319
G01 X14.7237 Y0.1258
G01 X14.7242 Y0.1196
G01 X14.7500 Y-0.0098
G01 X14.7515 Y-0.0157
G01 X14.7533 Y-0.0203
G01 X14.7561 Y-0.0257
G01 X14.7604 Y-0.0317
G01 X14.7654 Y-0.0371
G01 X14.7712 Y-0.0416
G01 X14.7776 Y-0.0452
G01 X14.7845 Y-0.0478
G01 X14.7917 Y-0.0495
G01 X14.7990 Y-0.0500
G01 X30.6681 Y-0.0500
G01 X30.6754 Y-0.0495
G01 X30.6826 Y-0.0478
G01 X30.6895 Y-0.0452
G01 X30.6959 Y-0.0416
G01 X30.7026 Y-0.0362
G01 X30.7083 Y-0.0298
G01 X30.7128 Y-0.0225
G01 X30.7160 Y-0.0145
G01 X30.7426 Y0.1185
G01 X30.7432 Y0.1233
G01 X30.7432 Y0.1295
G01 X30.7428 Y0.1343
G01 X30.7415 Y0.1403
G01 X30.7395 Y0.1461
G01 X30.7374 Y0.1506
G01 X30.7320 Y0.1587
G01 X30.7250 Y0.1656
G01 X30.7201 Y0.1692
G01 X30.7158 Y0.1717
G01 X30.6633 Y0.1936
G01 X30.4831 Y0.3318
G01 X29.7728 Y1.0421
G01 X29.6346 Y1.2223
G01 X29.5489 Y1.4292
G01 X29.5192 Y1.6543
G01 X29.5192 Y1.6709
G01 X29.5188 Y1.6757
G01 X29.5174 Y1.6829
G01 X29.5145 Y1.6908
G01 X29.5123 Y1.6951
G01 X29.5089 Y1.7001
G01 X29.3288 Y1.9348
G01 X29.2163 Y2.2059
G01 X29.2131 Y2.2111
G01 X29.2084 Y2.2168
G01 X29.2039 Y2.2209
G01 X29.1979 Y2.2252
G01 X29.1925 Y2.2280
G01 X29.1855 Y2.2305
G01 X29.1795 Y2.2318
G01 X29.1722 Y2.2323
G00 Z2.0000
G00 X29.3122 Y2.7152
G01 F60.00
G01 Z-0.0700
G01 F120.00
G01 X29.3000 Y2.7065
G01 X29.2905 Y2.7004
G01 X29.2756 Y2.6923
G01 X29.2654 Y2.6874
G01 X29.2550 Y2.6831
G01 X29.2390 Y2.6776
G01 X29.2226 Y2.6733
G01 X29.2115 Y2.6711
G01 X29.1947 Y2.6688
G01 X29.1778 Y2.6678
G01 X29.0418 Y2.6677
G01 X29.0249 Y2.6683
G01 X29.0080 Y2.6702
G01 X28.9969 Y2.6721
G01 X28.9859 Y2.6746
G01 X28.9696 Y2.6793
G01 X28.9538 Y2.6852
G01 X28.9434 Y2.6898
G01 X28.9334 Y2.6949
G01 X28.9187 Y2.7034
G01 X28.9018 Y2.7152
G01 X28.9118 Y2.6459
G01 X28.9126 Y2.6346
G01 X28.9170 Y2.5400
G01 X28.9126 Y2.4454
G01 X28.9118 Y2.4341
G01 X28.9018 Y2.3648
G01 X28.9140 Y2.3735
G01 X28.9235 Y2.3796
G01 X28.9384 Y2.3877
G01 X28.9486 Y2.3926
G01 X28.9590 Y2.3969
G01 X28.9750 Y2.4024
G01 X28.9914 Y2.4067
G01 X29.0025 Y2.4089
G01 X29.0193 Y2.4112
G01 X29.0362 Y2.4122
G01 X29.1722 Y2.4123
G01 X29.1891 Y2.4117
G01 X29.2060 Y2.4098
G01 X29.2171 Y2.4079
G01 X29.2281 Y2.4054
G01 X29.2444 Y2.4007
G01 X29.2602 Y2.3948
G01 X29.2706 Y2.3902
G01 X29.2806 Y2.3851
G01 X29.2953 Y2.3766
G01 X29.3122 Y2.3648
G01 X29.3022 Y2.4341
G01 X29.3014 Y2.4454
G01 X29.2970 Y2.5400
G01 X29.3014 Y2.6346
G01 X29.3022 Y2.6459
G01 X29.3122 Y2.7152
G00 Z2.0000
G00 X29.7667 Y1.7989
G01 F60.00
G01 Z-0.0700
G01 F120.00
G01 X29.7668 Y1.6483
G01 X29.7695 Y1.5939
G01 X29.7703 Y1.5858
G01 X29.7785 Y1.5319
G01 X29.7916 Y1.4791
G01 X29.7947 Y1.4687
G01 X29.8132 Y1.4175
G01 X29.8388 Y1.3633
G01 X29.8696 Y1.3120
G01 X29.9019 Y1.2681
G01 X29.9070 Y1.2618
G01 X29.9455 Y1.2195
G01 X30.6605 Y0.5045
G01 X30.7049 Y0.4643
G01 X30.7530 Y0.4286
G01 X30.7996 Y0.4005
G01 X30.8092 Y0.3954
G01 X30.8585 Y0.3722
G01 X30.9097 Y0.3537
G01 X30.9201 Y0.3506
G01 X30.9729 Y0.3375
G01 X31.0295 Y0.3290
G01 X31.0376 Y0.3283
G01 X31.0920 Y0.3257
G01 X39.9539 Y0.3258
G01 X40.0110 Y0.3287
G01 X40.0703 Y0.3375
G01 X40.1283 Y0.3520
G01 X40.1797 Y0.3703
G01 X40.1897 Y0.3744
G01 X40.2340 Y0.3954
G01 X40.2436 Y0.4005
G01 X40.2902 Y0.4286
G01 X40.3341 Y0.4609
G01 X40.3424 Y0.4678
G01 X40.3827 Y0.5045
G01 X40.8346 Y0.9564
G01 X40.8748 Y1.0008
G01 X40.9074 Y1.0444
G01 X40.9120 Y1.0511
G01 X40.9413 Y1.1002
G01 X40.9669 Y1.1544
G01 X40.9871 Y1.2108
G01 X41.0004 Y1.2636
G01 X41.0025 Y1.2742
G01 X41.0104 Y1.3281
G01 X41.0133 Y1.3852
G01 X41.0134 Y1.7075
G01 X41.0703 Y1.7418
G01 X41.1418 Y1.7946
G01 X41.1481 Y1.7996
G01 X41.2158 Y1.8612
G01 X41.2756 Y1.9269
G01 X41.2808 Y1.9331
G01 X41.3352 Y2.0067
G01 X41.3836 Y2.0875
G01 X41.4239 Y2.1726
G01 X41.4540 Y2.2562
G01 X41.4564 Y2.2639
G01 X41.4786 Y2.3527
G01 X41.4917 Y2.4405
G01 X41.4928 Y2.4513
G01 X41.4970 Y2.5400
G01 X41.4928 Y2.6287
G01 X41.4917 Y2.6395
G01 X41.4786 Y2.7273
G01 X41.4557 Y2.8187
G01 X41.4239 Y2.9074
G01 X41.3861 Y2.9877
G01 X41.3810 Y2.9972
G01 X41.3352 Y3.0733
G01 X41.2791 Y3.1490
G01 X41.2195 Y3.2149
G01 X41.2119 Y3.2225
G01 X41.1501 Y3.2786
G01 X41.1439 Y3.2838
G01 X41.1347 Y3.2907
G01 X49.2075 Y11.3635
G01 X49.3000 Y11.3590
G01 X49.3887 Y11.3632
G01 X49.3995 Y11.3643
G01 X49.4873 Y11.3774
G01 X49.5735 Y11.3989
G01 X49.5838 Y11.4020
G01 X49.6674 Y11.4321
G01 X49.7525 Y11.4724
G01 X49.8288 Y11.5179
G01 X49.8378 Y11.5239
G01 X49.9090 Y11.5769
G01 X49.9788 Y11.6402
G01 X50.0421 Y11.7100
G01 X50.0951 Y11.7812
G01 X50.1011 Y11.7902
G01 X50.1440 Y11.8618
G01 X50.1479 Y11.8689
G01 X50.1869 Y11.9516
G01 X50.2187 Y12.0403
G01 X50.2416 Y12.1317
G01 X50.2547 Y12.2195
G01 X50.2558 Y12.2303
G01 X50.2599 Y12.3136
G01 X50.2599 Y12.3244
G01 X50.2554 Y12.4131
G01 X50.2416 Y12.5063
G01 X50.2187 Y12.5977
G01 X50.1889 Y12.6813
G01 X50.1847 Y12.6913
G01 X50.1491 Y12.7667
G01 X50.1440 Y12.7762
G01 X50.0982 Y12.8523
G01 X50.0421 Y12.9280
G01 X49.9788 Y12.9978
G01 X49.9103 Y13.0601
G01 X49.9102 Y19.1797
G01 X49.9073 Y19.2368
G01 X49.8985 Y19.2961
G01 X49.8840 Y19.3541
G01 X49.8657 Y19.4055
G01 X49.8616 Y19.4155
G01 X49.8406 Y19.4598
G01 X49.8355 Y19.4694
G01 X49.8074 Y19.5160
G01 X49.7751 Y19.5599
G01 X49.7682 Y19.5682
G01 X49.7315 Y19.6085
G01 X47.9516 Y21.3884
G01 X47.9132 Y21.4232
G01 X47.9049 Y21.4301
G01 X47.8610 Y21.4624
G01 X47.8144 Y21.4905
G01 X47.8048 Y21.4956
G01 X47.7555 Y21.5188
G01 X47.6991 Y21.5390
G01 X47.6463 Y21.5523
G01 X47.6357 Y21.5544
G01 X47.5818 Y21.5623
G01 X47.5220 Y21.5653
G01 X43.0758 Y21.5653
G01 X41.8216 Y22.8194
G01 X41.8748 Y22.8781
G01 X41.8800 Y22.8843
G01 X41.9547 Y22.9850
G01 X41.9593 Y22.9917
G01 X42.0264 Y23.1039
G01 X42.0813 Y23.2196
G01 X42.0845 Y23.2271
G01 X42.1284 Y23.3502
G01 X42.1609 Y23.4797
G01 X42.1805 Y23.6117
G01 X42.1869 Y23.7396
G01 X42.1870 Y23.7477
G01 X42.1805 Y23.8783
G01 X42.1609 Y24.0103
G01 X42.1284 Y24.1398
G01 X42.0835 Y24.2654
G01 X42.0264 Y24.3861
G01 X41.9578 Y24.5006
G01 X41.8783 Y24.6078
G01 X41.7906 Y24.7047
G01 X41.7848 Y24.7104
G01 X41.6898 Y24.7963
G01 X41.5826 Y24.8758
G01 X41.4681 Y24.9444
G01 X41.3474 Y25.0015
G01 X41.2218 Y25.0464
G01 X41.0923 Y25.0789
G01 X40.9603 Y25.0985
G01 X40.8324 Y25.1049
G01 X40.8216 Y25.1049
G01 X40.6937 Y25.0985
G01 X40.5670 Y25.0798
G01 X40.5564 Y25.0777
G01 X40.4374 Y25.0479
G01 X40.4271 Y25.0447
G01 X40.3066 Y25.0015
G01 X40.1859 Y24.9444
G01 X40.0714 Y24.8758
G01 X39.9685 Y24.7996
G01 X39.9601 Y24.7928
G01 X39.8653 Y24.7067
G01 X39.7757 Y24.6078
G01 X39.6962 Y24.5006
G01 X39.6302 Y24.3908
G01 X39.6252 Y24.3813
G01 X39.5727 Y24.2704
G01 X39.5686 Y24.2604
G01 X39.5256 Y24.1398
G01 X39.4931 Y24.0103
G01 X39.4735 Y23.8783
G01 X39.4670 Y23.7450
G01 X39.4735 Y23.6117
G01 X39.4922 Y23.4850
G01 X39.4943 Y23.4744
G01 X39.5241 Y23.3554
G01 X39.5273 Y23.3451
G01 X39.5705 Y23.2246
G01 X39.6252 Y23.1087
G01 X39.6289 Y23.1015
G01 X39.6962 Y22.9894
G01 X39.7757 Y22.8822
G01 X39.8653 Y22.7833
G01 X39.9601 Y22.6972
G01 X39.9663 Y22.6920
G01 X40.0714 Y22.6142
G01 X40.1812 Y22.5482
G01 X40.1883 Y22.5443
G01 X40.3016 Y22.4907
G01 X40.3091 Y22.4875
G01 X40.4296 Y22.4444
G01 X40.4374 Y22.4421
G01 X40.4847 Y22.4303
G01 X42.3915 Y20.5235
G01 X42.4359 Y20.4833
G01 X42.4840 Y20.4476
G01 X42.5306 Y20.4195
G01 X42.5402 Y20.4144
G01 X42.5895 Y20.3912
G01 X42.6459 Y20.3710
G01 X42.6987 Y20.3577
G01 X42.7093 Y20.3556
G01 X42.7632 Y20.3477
G01 X42.8203 Y20.3448
G01 X47.2692 Y20.3447
G01 X48.6897 Y18.9242
G01 X48.6897 Y13.0601
G01 X48.6251 Y13.0015
G01 X48.6175 Y12.9939
G01 X48.5579 Y12.9280
G01 X48.5049 Y12.8568
G01 X48.4989 Y12.8478
G01 X48.4534 Y12.7715
G01 X48.4131 Y12.6864
G01 X48.3813 Y12.5977
G01 X48.3596 Y12.5116
G01 X48.3575 Y12.5010
G01 X48.3446 Y12.4131
G01 X48.3401 Y12.3244
G01 X48.3401 Y12.3136
G01 X48.3445 Y12.2265
G01 X40.0405 Y3.9225
G01 X40.0003 Y3.8781
G01 X39.9646 Y3.8300
G01 X39.9365 Y3.7834
G01 X39.9314 Y3.7738
G01 X39.9082 Y3.7245
G01 X39.8897 Y3.6733
G01 X39.8866 Y3.6629
G01 X39.8735 Y3.6101
G01 X39.8647 Y3.5508
G01 X39.8618 Y3.4937
G01 X39.8617 Y3.2222
G01 X39.8545 Y3.2149
G01 X39.7949 Y3.1490
G01 X39.7419 Y3.0778
G01 X39.7359 Y3.0688
G01 X39.6930 Y2.9972
G01 X39.6879 Y2.9877
G01 X39.6501 Y2.9074
G01 X39.6183 Y2.8187
G01 X39.5954 Y2.7273
G01 X39.5819 Y2.6368
G01 X39.5812 Y2.6287
G01 X39.5770 Y2.5400
G01 X39.5816 Y2.4459
G01 X39.5954 Y2.3527
G01 X39.6183 Y2.2613
G01 X39.6501 Y2.1726
G01 X39.6904 Y2.0875
G01 X39.7388 Y2.0067
G01 X39.7928 Y1.9336
G01 X39.7928 Y1.6407
G01 X39.6984 Y1.5463
G01 X38.6073 Y1.5463
G01 X38.6073 Y1.7989
G01 X38.6758 Y1.8612
G01 X38.7356 Y1.9269
G01 X38.7424 Y1.9352
G01 X38.7921 Y2.0022
G01 X38.7981 Y2.0112
G01 X38.8436 Y2.0875
G01 X38.8839 Y2.1726
G01 X38.9157 Y2.2613
G01 X38.9374 Y2.3474
G01 X38.9395 Y2.3580
G01 X38.9524 Y2.4459
G01 X38.9569 Y2.5346
G01 X38.9569 Y2.5454
G01 X38.9524 Y2.6341
G01 X38.9395 Y2.7220
G01 X38.9374 Y2.7326
G01 X38.9157 Y2.8187
G01 X38.8839 Y2.9074
G01 X38.8461 Y2.9877
G01 X38.8410 Y2.9972
G01 X38.7952 Y3.0733
G01 X38.7391 Y3.1490
G01 X38.6795 Y3.2149
G01 X38.6719 Y3.2225
G01 X38.6101 Y3.2786
G01 X38.6018 Y3.2854
G01 X38.5303 Y3.3382
G01 X38.4495 Y3.3866
G01 X38.3644 Y3.4269
G01 X38.2808 Y3.4570
G01 X38.2705 Y3.4601
G01 X38.1896 Y3.4804
G01 X38.1790 Y3.4825
G01 X38.0911 Y3.4954
G01 X37.9997 Y3.5000
G01 X37.9916 Y3.4999
G01 X37.9083 Y3.4958
G01 X37.8975 Y3.4947
G01 X37.8097 Y3.4816
G01 X37.7183 Y3.4587
G01 X37.6296 Y3.4269
G01 X37.5493 Y3.3891
G01 X37.5398 Y3.3840
G01 X37.4682 Y3.3411
G01 X37.4592 Y3.3351
G01 X37.3880 Y3.2821
G01 X37.3182 Y3.2188
G01 X37.2549 Y3.1490
G01 X37.2019 Y3.0778
G01 X37.1959 Y3.0688
G01 X37.1530 Y2.9972
G01 X37.1479 Y2.9877
G01 X37.1101 Y2.9074
G01 X37.0783 Y2.8187
G01 X37.0566 Y2.7326
G01 X37.0545 Y2.7220
G01 X37.0416 Y2.6341
G01 X37.0371 Y2.5454
G01 X37.0371 Y2.5346
G01 X37.0416 Y2.4459
G01 X37.0545 Y2.3580
G01 X37.0566 Y2.3474
G01 X37.0783 Y2.2613
G01 X37.1101 Y2.1726
G01 X37.1504 Y2.0875
G01 X37.1959 Y2.0112
G01 X37.2019 Y2.0022
G01 X37.2516 Y1.9352
G01 X37.2584 Y1.9269
G01 X37.3182 Y1.8612
G01 X37.3867 Y1.7989
G01 X37.3867 Y1.5463
G01 X31.3448 Y1.5463
G01 X31.0423 Y1.8487
G01 X31.0539 Y1.8593
G01 X31.0595 Y1.8651
G01 X31.1156 Y1.9269
G01 X31.1224 Y1.9352
G01 X31.1752 Y2.0067
G01 X31.2236 Y2.0875
G01 X31.2639 Y2.1726
G01 X31.2940 Y2.2562
G01 X31.2971 Y2.2665
G01 X31.3174 Y2.3474
G01 X31.3195 Y2.3580
G01 X31.3324 Y2.4459
G01 X31.3370 Y2.5400
G01 X31.3324 Y2.6341
G01 X31.3195 Y2.7220
G01 X31.3174 Y2.7326
G01 X31.2971 Y2.8135
G01 X31.2940 Y2.8238
G01 X31.2639 Y2.9074
G01 X31.2249 Y2.9901
G01 X31.2210 Y2.9972
G01 X31.1781 Y3.0688
G01 X31.1721 Y3.0778
G01 X31.1191 Y3.1490
G01 X31.0595 Y3.2149
G01 X31.0519 Y3.2225
G01 X30.9860 Y3.2821
G01 X30.9148 Y3.3351
G01 X30.9058 Y3.3411
G01 X30.8295 Y3.3866
G01 X30.7493 Y3.4247
G01 X30.7393 Y3.4289
G01 X30.6557 Y3.4587
G01 X30.5696 Y3.4804
G01 X30.5590 Y3.4825
G01 X30.4711 Y3.4954
G01 X30.3797 Y3.5000
G01 X30.3716 Y3.4999
G01 X30.2883 Y3.4958
G01 X30.2775 Y3.4947
G01 X30.1897 Y3.4816
G01 X30.0983 Y3.4587
G01 X30.0096 Y3.4269
G01 X29.9293 Y3.3891
G01 X29.9198 Y3.3840
G01 X29.8437 Y3.3382
G01 X29.7680 Y3.2821
G01 X29.7021 Y3.2225
G01 X29.6945 Y3.2149
G01 X29.6349 Y3.1490
G01 X29.5788 Y3.0733
G01 X29.5330 Y2.9972
G01 X29.5279 Y2.9877
G01 X29.4923 Y2.9123
G01 X29.4881 Y2.9023
G01 X29.4583 Y2.8187
G01 X29.4366 Y2.7326
G01 X29.4345 Y2.7220
G01 X29.4223 Y2.6395
G01 X29.4212 Y2.6287
G01 X29.4170 Y2.5400
G01 X29.4216 Y2.4459
G01 X29.4354 Y2.3527
G01 X29.4569 Y2.2665
G01 X29.4600 Y2.2562
G01 X29.4881 Y2.1777
G01 X29.4923 Y2.1677
G01 X29.5304 Y2.0875
G01 X29.5788 Y2.0067
G01 X29.6316 Y1.9352
G01 X29.6384 Y1.9269
G01 X29.6982 Y1.8612
G01 X29.7667 Y1.7989
G00 Z2.0000
G00 X29.8268 Y1.6485
G01 F60.00
G01 Z-0.0700
G01 F120.00
G01 X29.8294 Y1.5971
G01 X29.8373 Y1.5437
G01 X29.8504 Y1.4913
G01 X29.8686 Y1.4404
G01 X29.8917 Y1.3916
G01 X29.9195 Y1.3453
G01 X29.9517 Y1.3019
G01 X29.9871 Y1.2628
G01 X30.7029 Y0.5469
G01 X30.7429 Y0.5107
G01 X30.7863 Y0.4785
G01 X30.8305 Y0.4519
G01 X30.8814 Y0.4276
G01 X30.9323 Y0.4094
G01 X30.9823 Y0.3969
G01 X31.0381 Y0.3884
G01 X31.0920 Y0.3857
G01 X39.9524 Y0.3858
G01 X40.0051 Y0.3884
G01 X40.0585 Y0.3963
G01 X40.1109 Y0.4094
G01 X40.1595 Y0.4268
G01 X40.2127 Y0.4519
G01 X40.2569 Y0.4785
G01 X40.3021 Y0.5123
G01 X40.3403 Y0.5469
G01 X40.7922 Y0.9988
G01 X40.8284 Y1.0388
G01 X40.8613 Y1.0832
G01 X40.8884 Y1.1285
G01 X40.9123 Y1.1796
G01 X40.9297 Y1.2282
G01 X40.9422 Y1.2782
G01 X40.9504 Y1.3315
G01 X40.9534 Y1.3879
G01 X40.9534 Y1.7425
G01 X40.9634 Y1.7475
G01 X41.0370 Y1.7917
G01 X41.1080 Y1.8443
G01 X41.1734 Y1.9036
G01 X41.2327 Y1.9690
G01 X41.2853 Y2.0400
G01 X41.3307 Y2.1157
G01 X41.3685 Y2.1956
G01 X41.3986 Y2.2799
G01 X41.4197 Y2.3644
G01 X41.4324 Y2.4493
G01 X41.4370 Y2.5400
G01 X41.4327 Y2.6282
G01 X41.4201 Y2.7132
G01 X41.3975 Y2.8036
G01 X41.3685 Y2.8844
G01 X41.3318 Y2.9621
G01 X41.2839 Y3.0420
G01 X41.2327 Y3.1110
G01 X41.1734 Y3.1764
G01 X41.1080 Y3.2357
G01 X41.0431 Y3.2839
G01 X49.1862 Y11.4271
G01 X49.2130 Y11.4232
G01 X49.3012 Y11.4190
G01 X49.3882 Y11.4233
G01 X49.4744 Y11.4361
G01 X49.5636 Y11.4585
G01 X49.6444 Y11.4875
G01 X49.7232 Y11.5247
G01 X49.8020 Y11.5721
G01 X49.8710 Y11.6233
G01 X49.9364 Y11.6826
G01 X49.9957 Y11.7480
G01 X50.0469 Y11.8170
G01 X50.0943 Y11.8958
G01 X50.1315 Y11.9746
G01 X50.1612 Y12.0577
G01 X50.1827 Y12.1434
G01 X50.1954 Y12.2283
G01 X50.1999 Y12.3215
G01 X50.1957 Y12.4072
G01 X50.1825 Y12.4958
G01 X50.1612 Y12.5803
G01 X50.1315 Y12.6634
G01 X50.0937 Y12.7433
G01 X50.0490 Y12.8180
G01 X49.9957 Y12.8900
G01 X49.9373 Y12.9545
G01 X49.8719 Y13.0139
G01 X49.8503 Y13.0301
G01 X49.8502 Y19.1782
G01 X49.8476 Y19.2309
G01 X49.8397 Y19.2843
G01 X49.8266 Y19.3367
G01 X49.8092 Y19.3853
G01 X49.7841 Y19.4385
G01 X49.7575 Y19.4827
G01 X49.7237 Y19.5279
G01 X49.6891 Y19.5661
G01 X47.9102 Y21.3449
G01 X47.8691 Y21.3819
G01 X47.8277 Y21.4125
G01 X47.7835 Y21.4391
G01 X47.7326 Y21.4634
G01 X47.6817 Y21.4816
G01 X47.6293 Y21.4947
G01 X47.5784 Y21.5023
G01 X47.5220 Y21.5053
G01 X43.0509 Y21.5053
G01 X41.7380 Y22.8182
G01 X41.7479 Y22.8275
G01 X41.8319 Y22.9203
G01 X41.9079 Y23.0228
G01 X41.9735 Y23.1322
G01 X42.0280 Y23.2475
G01 X42.0710 Y23.3676
G01 X42.1020 Y23.4914
G01 X42.1207 Y23.6176
G01 X42.1270 Y23.7450
G01 X42.1207 Y23.8724
G01 X42.1020 Y23.9986
G01 X42.0710 Y24.1224
G01 X42.0280 Y24.2425
G01 X41.9735 Y24.3578
G01 X41.9079 Y24.4672
G01 X41.8319 Y24.5697
G01 X41.7471 Y24.6634
G01 X41.6517 Y24.7499
G01 X41.5492 Y24.8259
G01 X41.4398 Y24.8915
G01 X41.3245 Y24.9460
G01 X41.2044 Y24.9890
G01 X41.0806 Y25.0200
G01 X40.9544 Y25.0387
G01 X40.8295 Y25.0449
G01 X40.6996 Y25.0387
G01 X40.5758 Y25.0204
G01 X40.4473 Y24.9883
G01 X40.3295 Y24.9460
G01 X40.2142 Y24.8915
G01 X40.1048 Y24.8259
G01 X40.0004 Y24.7483
G01 X39.9078 Y24.6642
G01 X39.8221 Y24.5697
G01 X39.7461 Y24.4672
G01 X39.6817 Y24.3600
G01 X39.6251 Y24.2402
G01 X39.5830 Y24.1224
G01 X39.5520 Y23.9986
G01 X39.5333 Y23.8724
G01 X39.5270 Y23.7450
G01 X39.5333 Y23.6176
G01 X39.5516 Y23.4938
G01 X39.5837 Y23.3653
G01 X39.6260 Y23.2475
G01 X39.6817 Y23.1300
G01 X39.7461 Y23.0228
G01 X39.8221 Y22.9203
G01 X39.9078 Y22.8258
G01 X40.0032 Y22.7393
G01 X40.1048 Y22.6641
G01 X40.2153 Y22.5979
G01 X40.3307 Y22.5435
G01 X40.4485 Y22.5013
G01 X40.5154 Y22.4844
G01 X42.4339 Y20.5659
G01 X42.4739 Y20.5297
G01 X42.5173 Y20.4975
G01 X42.5658 Y20.4686
G01 X42.6124 Y20.4466
G01 X42.6633 Y20.4284
G01 X42.7181 Y20.4149
G01 X42.7691 Y20.4074
G01 X42.8218 Y20.4048
G01 X47.2941 Y20.4047
G01 X48.7497 Y18.9491
G01 X48.7497 Y13.0301
G01 X48.7281 Y13.0139
G01 X48.6645 Y12.9563
G01 X48.6035 Y12.8890
G01 X48.5517 Y12.8190
G01 X48.5075 Y12.7454
G01 X48.4685 Y12.6634
G01 X48.4381 Y12.5779
G01 X48.4173 Y12.4946
G01 X48.4045 Y12.4084
G01 X48.4000 Y12.3178
G01 X48.4042 Y12.2320
G01 X48.4081 Y12.2052
G01 X40.0829 Y3.8801
G01 X40.0467 Y3.8401
G01 X40.0145 Y3.7967
G01 X39.9856 Y3.7482
G01 X39.9636 Y3.7016
G01 X39.9462 Y3.6531
G01 X39.9323 Y3.5983
G01 X39.9244 Y3.5449
G01 X39.9218 Y3.4922
G01 X39.9217 Y3.1956
G01 X39.8997 Y3.1755
G01 X39.8405 Y3.1100
G01 X39.7887 Y3.0400
G01 X39.7427 Y2.9632
G01 X39.7055 Y2.8844
G01 X39.6758 Y2.8013
G01 X39.6543 Y2.7156
G01 X39.6416 Y2.6307
G01 X39.6370 Y2.5400
G01 X39.6413 Y2.4518
G01 X39.6543 Y2.3644
G01 X39.6758 Y2.2787
G01 X39.7055 Y2.1956
G01 X39.7433 Y2.1157
G01 X39.7894 Y2.0390
G01 X39.8405 Y1.9700
G01 X39.8528 Y1.9562
G01 X39.8528 Y1.6158
G01 X39.7233 Y1.4863
G01 X38.5473 Y1.4863
G01 X38.5473 Y1.8289
G01 X38.5689 Y1.8451
G01 X38.6343 Y1.9045
G01 X38.6927 Y1.9690
G01 X38.7460 Y2.0410
G01 X38.7907 Y2.1157
G01 X38.8285 Y2.1956
G01 X38.8582 Y2.2787
G01 X38.8795 Y2.3632
G01 X38.8927 Y2.4518
G01 X38.8969 Y2.5425
G01 X38.8927 Y2.6282
G01 X38.8801 Y2.7132
G01 X38.8586 Y2.8001
G01 X38.8275 Y2.8867
G01 X38.7907 Y2.9643
G01 X38.7453 Y3.0400
G01 X38.6927 Y3.1110
G01 X38.6351 Y3.1746
G01 X38.5660 Y3.2372
G01 X38.4970 Y3.2883
G01 X38.4213 Y3.3337
G01 X38.3414 Y3.3715
G01 X38.2606 Y3.4005
G01 X38.1702 Y3.4231
G01 X38.0852 Y3.4357
G01 X37.9982 Y3.4400
G01 X37.9063 Y3.4354
G01 X37.8214 Y3.4227
G01 X37.7357 Y3.4012
G01 X37.6526 Y3.3715
G01 X37.5749 Y3.3348
G01 X37.4950 Y3.2869
G01 X37.4260 Y3.2357
G01 X37.3606 Y3.1764
G01 X37.3013 Y3.1110
G01 X37.2501 Y3.0420
G01 X37.2022 Y2.9621
G01 X37.1655 Y2.8844
G01 X37.1354 Y2.8001
G01 X37.1139 Y2.7132
G01 X37.1013 Y2.6282
G01 X37.0971 Y2.5425
G01 X37.1013 Y2.4518
G01 X37.1145 Y2.3632
G01 X37.1358 Y2.2787
G01 X37.1655 Y2.1956
G01 X37.2033 Y2.1157
G01 X37.2480 Y2.0410
G01 X37.3013 Y1.9690
G01 X37.3597 Y1.9045
G01 X37.4251 Y1.8451
G01 X37.4467 Y1.8289
G01 X37.4467 Y1.4863
G01 X31.3199 Y1.4863
G01 X30.9553 Y1.8509
G01 X31.0134 Y1.9036
G01 X31.0727 Y1.9690
G01 X31.1253 Y2.0400
G01 X31.1695 Y2.1136
G01 X31.2094 Y2.1979
G01 X31.2382 Y2.2787
G01 X31.2597 Y2.3644
G01 X31.2727 Y2.4518
G01 X31.2769 Y2.5375
G01 X31.2724 Y2.6307
G01 X31.2597 Y2.7156
G01 X31.2382 Y2.8013
G01 X31.2085 Y2.8844
G01 X31.1718 Y2.9621
G01 X31.1253 Y3.0400
G01 X31.0711 Y3.1128
G01 X31.0134 Y3.1764
G01 X30.9498 Y3.2341
G01 X30.8749 Y3.2896
G01 X30.8013 Y3.3337
G01 X30.7237 Y3.3705
G01 X30.6383 Y3.4012
G01 X30.5502 Y3.4231
G01 X30.4652 Y3.4357
G01 X30.3782 Y3.4400
G01 X30.2863 Y3.4354
G01 X30.2014 Y3.4227
G01 X30.1157 Y3.4012
G01 X30.0326 Y3.3715
G01 X29.9549 Y3.3348
G01 X29.8750 Y3.2869
G01 X29.8060 Y3.2357
G01 X29.7406 Y3.1764
G01 X29.6813 Y3.1110
G01 X29.6301 Y3.0420
G01 X29.5822 Y2.9621
G01 X29.5455 Y2.8844
G01 X29.5158 Y2.8013
G01 X29.4943 Y2.7156
G01 X29.4816 Y2.6307
G01 X29.4770 Y2.5400
G01 X29.4816 Y2.4493
G01 X29.4943 Y2.3644
G01 X29.5154 Y2.2799
G01 X29.5455 Y2.1956
G01 X29.5822 Y2.1179
G01 X29.6294 Y2.0390
G01 X29.6813 Y1.9690
G01 X29.7397 Y1.9045
G01 X29.8051 Y1.8451
G01 X29.8267 Y1.8289
G01 X29.8268 Y1.6485
G00 Z2.0000
G00 X32.2838 Y1.6663
G01 F60.00
G01 Z-0.0700
G01 F120.00
G01 X32.2319 Y1.7051
G01 X32.2233 Y1.7125
G01 X32.1574 Y1.7724
G01 X32.1455 Y1.7845
G01 X32.0895 Y1.8463
G01 X32.0786 Y1.8593
G01 X32.0255 Y1.9308
G01 X32.0190 Y1.9400
G01 X31.9701 Y2.0211
G01 X31.9645 Y2.0309
G01 X31.9594 Y2.0410
G01 X31.9192 Y2.1267
G01 X31.8870 Y2.2158
G01 X31.8835 Y2.2265
G01 X31.8805 Y2.2374
G01 X31.8578 Y2.3293
G01 X31.8558 Y2.3404
G01 X31.8428 Y2.4285
G01 X31.8414 Y2.4454
G01 X31.8373 Y2.5287
G01 X31.8371 Y2.5456
G01 X31.8414 Y2.6346
G01 X31.8422 Y2.6459
G01 X31.8522 Y2.7152
G01 X31.8400 Y2.7065
G01 X31.8305 Y2.7004
G01 X31.8156 Y2.6923
G01 X31.8054 Y2.6874
G01 X31.7950 Y2.6831
G01 X31.7790 Y2.6776
G01 X31.7626 Y2.6733
G01 X31.7515 Y2.6711
G01 X31.7347 Y2.6688
G01 X31.7178 Y2.6678
G01 X31.5818 Y2.6677
G01 X31.5649 Y2.6683
G01 X31.5480 Y2.6702
G01 X31.5369 Y2.6721
G01 X31.5259 Y2.6746
G01 X31.5096 Y2.6793
G01 X31.4938 Y2.6852
G01 X31.4834 Y2.6898
G01 X31.4734 Y2.6949
G01 X31.4587 Y2.7034
G01 X31.4418 Y2.7152
G01 X31.4518 Y2.6459
G01 X31.4567 Y2.5513
G01 X31.4570 Y2.5400
G01 X31.4567 Y2.5287
G01 X31.4523 Y2.4398
G01 X31.4504 Y2.4229
G01 X31.4362 Y2.3293
G01 X31.4338 Y2.3183
G01 X31.4121 Y2.2319
G01 X31.4070 Y2.2158
G01 X31.3748 Y2.1267
G01 X31.3346 Y2.0410
G01 X31.3295 Y2.0309
G01 X31.2810 Y1.9495
G01 X31.2750 Y1.9400
G01 X31.2188 Y1.8638
G01 X31.2091 Y1.8516
G01 X31.3945 Y1.6663
G01 X32.2838 Y1.6663
G00 Z2.0000
G00 X33.8169 Y2.5425
G01 F60.00
G01 Z-0.0700
G01 F120.00
G01 X33.8127 Y2.6282
G01 X33.7997 Y2.7156
G01 X33.7782 Y2.8013
G01 X33.7485 Y2.8844
G01 X33.7107 Y2.9643
G01 X33.6653 Y3.0400
G01 X33.6127 Y3.1110
G01 X33.5534 Y3.1764
G01 X33.4880 Y3.2357
G01 X33.4170 Y3.2883
G01 X33.3413 Y3.3337
G01 X33.2614 Y3.3715
G01 X33.1783 Y3.4012
G01 X33.0926 Y3.4227
G01 X33.0052 Y3.4357
G01 X32.9170 Y3.4400
G01 X32.8288 Y3.4357
G01 X32.7414 Y3.4227
G01 X32.6557 Y3.4012
G01 X32.5726 Y3.3715
G01 X32.4927 Y3.3337
G01 X32.4170 Y3.2883
G01 X32.3460 Y3.2357
G01 X32.2806 Y3.1764
G01 X32.2213 Y3.1110
G01 X32.1687 Y3.0400
G01 X32.1233 Y2.9643
G01 X32.0855 Y2.8844
G01 X32.0558 Y2.8013
G01 X32.0343 Y2.7156
G01 X32.0213 Y2.6282
G01 X32.0170 Y2.5400
G01 X32.0213 Y2.4518
G01 X32.0343 Y2.3644
G01 X32.0558 Y2.2787
G01 X32.0855 Y2.1956
G01 X32.1233 Y2.1157
G01 X32.1687 Y2.0400
G01 X32.2213 Y1.9690
G01 X32.2806 Y1.9036
G01 X32.3460 Y1.8443
G01 X32.4170 Y1.7917
G01 X32.4927 Y1.7463
G01 X32.5726 Y1.7085
G01 X32.6557 Y1.6788
G01 X32.7414 Y1.6573
G01 X32.8288 Y1.6443
G01 X32.9170 Y1.6400
G01 X33.0052 Y1.6443
G01 X33.0926 Y1.6573
G01 X33.1783 Y1.6788
G01 X33.2614 Y1.7085
G01 X33.3413 Y1.7463
G01 X33.4170 Y1.7917
G01 X33.4880 Y1.8443
G01 X33.5534 Y1.9036
G01 X33.6127 Y1.9690
G01 X33.6653 Y2.0400
G01 X33.7107 Y2.1157
G01 X33.7485 Y2.1956
G01 X33.7782 Y2.2787
G01 X33.7997 Y2.3644
G01 X33.8127 Y2.4518
G01 X33.8169 Y2.5425
G00 Z2.0000
G00 X33.8769 Y2.5454
G01 F60.00
G01 Z-0.0700
G01 F120.00
G01 X33.8724 Y2.6341
G01 X33.8586 Y2.7273
G01 X33.8357 Y2.8187
G01 X33.8039 Y2.9074
G01 X33.7636 Y2.9925
G01 X33.7152 Y3.0733
G01 X33.6591 Y3.1490
G01 X33.5958 Y3.2188
G01 X33.5260 Y3.2821
G01 X33.4503 Y3.3382
G01 X33.3695 Y3.3866
G01 X33.2844 Y3.4269
G01 X33.1957 Y3.4587
G01 X33.1043 Y3.4816
G01 X33.0111 Y3.4954
G01 X32.9170 Y3.5000
G01 X32.8229 Y3.4954
G01 X32.7297 Y3.4816
G01 X32.6383 Y3.4587
G01 X32.5496 Y3.4269
G01 X32.4645 Y3.3866
G01 X32.3837 Y3.3382
G01 X32.3080 Y3.2821
G01 X32.2382 Y3.2188
G01 X32.1749 Y3.1490
G01 X32.1188 Y3.0733
G01 X32.0704 Y2.9925
G01 X32.0301 Y2.9074
G01 X31.9983 Y2.8187
G01 X31.9754 Y2.7273
G01 X31.9616 Y2.6341
G01 X31.9570 Y2.5400
G01 X31.9616 Y2.4459
G01 X31.9754 Y2.3527
G01 X31.9983 Y2.2613
G01 X32.0301 Y2.1726
G01 X32.0704 Y2.0875
G01 X32.1188 Y2.0067
G01 X32.1749 Y1.9310
G01 X32.2382 Y1.8612
G01 X32.3080 Y1.7979
G01 X32.3837 Y1.7418
G01 X32.4645 Y1.6934
G01 X32.5496 Y1.6531
G01 X32.6383 Y1.6213
G01 X32.7297 Y1.5984
G01 X32.8229 Y1.5846
G01 X32.9170 Y1.5800
G01 X33.0111 Y1.5846
G01 X33.1043 Y1.5984
G01 X33.1957 Y1.6213
G01 X33.2844 Y1.6531
G01 X33.3695 Y1.6934
G01 X33.4503 Y1.7418
G01 X33.5260 Y1.7979
G01 X33.5958 Y1.8612
G01 X33.6591 Y1.9310
G01 X33.7152 Y2.0067
G01 X33.7636 Y2.0875
G01 X33.8039 Y2.1726
G01 X33.8357 Y2.2613
G01 X33.8586 Y2.3527
G01 X33.8724 Y2.4459
G01 X33.8769 Y2.5346
G01 X33.8769 Y2.5454
G00 Z2.0000
G00 X33.9368 Y2.5483
G01 F60.00
G01 Z-0.0700
G01 F120.00
G01 X33.9327 Y2.6317
G01 X33.9311 Y2.6483
G01 X33.9174 Y2.7390
G01 X33.8953 Y2.8280
G01 X33.8905 Y2.8440
G01 X33.8594 Y2.9303
G01 X33.8166 Y3.0208
G01 X33.7651 Y3.1067
G01 X33.7106 Y3.1805
G01 X33.7000 Y3.1934
G01 X33.6382 Y3.2612
G01 X33.5704 Y3.3230
G01 X33.5575 Y3.3336
G01 X33.4837 Y3.3881
G01 X33.4051 Y3.4354
G01 X33.3904 Y3.4433
G01 X33.3073 Y3.4824
G01 X33.2210 Y3.5135
G01 X33.2050 Y3.5183
G01 X33.1160 Y3.5404
G01 X33.0170 Y3.5551
G01 X32.9170 Y3.5600
G01 X32.8253 Y3.5557
G01 X32.8087 Y3.5541
G01 X32.7180 Y3.5404
G01 X32.6290 Y3.5183
G01 X32.6130 Y3.5135
G01 X32.5344 Y3.4854
G01 X32.5190 Y3.4790
G01 X32.4436 Y3.4433
G01 X32.4289 Y3.4354
G01 X32.3503 Y3.3881
G01 X32.2699 Y3.3285
G01 X32.1958 Y3.2612
G01 X32.1340 Y3.1934
G01 X32.1234 Y3.1805
G01 X32.0689 Y3.1067
G01 X32.0216 Y3.0281
G01 X32.0137 Y3.0134
G01 X31.9746 Y2.9303
G01 X31.9409 Y2.8361
G01 X31.9184 Y2.7471
G01 X31.9152 Y2.7308
G01 X31.9019 Y2.6400
G01 X31.8971 Y2.5442
G01 X31.8972 Y2.5317
G01 X31.9013 Y2.4483
G01 X31.9029 Y2.4317
G01 X31.9166 Y2.3410
G01 X31.9409 Y2.2439
G01 X31.9746 Y2.1497
G01 X32.0137 Y2.0666
G01 X32.0216 Y2.0519
G01 X32.0689 Y1.9733
G01 X32.1285 Y1.8929
G01 X32.1900 Y1.8248
G01 X32.2018 Y1.8130
G01 X32.2699 Y1.7515
G01 X32.3435 Y1.6967
G01 X32.3574 Y1.6874
G01 X32.4362 Y1.6404
G01 X32.5080 Y1.6063
G01 X31.3696 Y1.6063
G01 X31.1264 Y1.8495
G01 X31.1600 Y1.8866
G01 X31.1681 Y1.8962
G01 X31.2203 Y1.9665
G01 X31.2274 Y1.9768
G01 X31.2766 Y2.0592
G01 X31.3177 Y2.1458
G01 X31.3224 Y2.1574
G01 X31.3505 Y2.2360
G01 X31.3553 Y2.2520
G01 X31.3774 Y2.3410
G01 X31.3916 Y2.4359
G01 X31.3927 Y2.4483
G01 X31.3968 Y2.5317
G01 X31.3968 Y2.5483
G01 X31.3921 Y2.6400
G01 X31.3774 Y2.7390
G01 X31.3553 Y2.8280
G01 X31.3505 Y2.8440
G01 X31.3194 Y2.9303
G01 X31.2785 Y3.0171
G01 X31.2724 Y3.0281
G01 X31.2296 Y3.0996
G01 X31.2203 Y3.1135
G01 X31.1655 Y3.1871
G01 X31.1040 Y3.2552
G01 X31.0922 Y3.2670
G01 X31.0241 Y3.3285
G01 X30.9505 Y3.3833
G01 X30.9366 Y3.3926
G01 X30.8578 Y3.4396
G01 X30.7750 Y3.4790
G01 X30.7596 Y3.4854
G01 X30.6731 Y3.5161
G01 X30.5760 Y3.5404
G01 X30.4853 Y3.5541
G01 X30.4687 Y3.5557
G01 X30.3770 Y3.5600
G01 X30.2770 Y3.5551
G01 X30.1780 Y3.5404
G01 X30.0809 Y3.5161
G01 X29.9867 Y3.4824
G01 X29.8962 Y3.4396
G01 X29.8103 Y3.3881
G01 X29.7299 Y3.3285
G01 X29.6558 Y3.2612
G01 X29.5885 Y3.1871
G01 X29.5289 Y3.1067
G01 X29.4774 Y3.0208
G01 X29.4346 Y2.9303
G01 X29.4009 Y2.8361
G01 X29.3766 Y2.7390
G01 X29.3619 Y2.6400
G01 X29.3570 Y2.5400
G01 X29.3619 Y2.4400
G01 X29.3766 Y2.3410
G01 X29.4009 Y2.2439
G01 X29.4316 Y2.1574
G01 X29.4363 Y2.1458
G01 X29.4774 Y2.0592
G01 X29.5244 Y1.9804
G01 X29.5337 Y1.9665
G01 X29.5834 Y1.8995
G01 X29.5940 Y1.8866
G01 X29.6558 Y1.8188
G01 X29.7067 Y1.7723
G01 X29.7068 Y1.6468
G01 X29.7094 Y1.5936
G01 X29.7110 Y1.5770
G01 X29.7182 Y1.5285
G01 X29.7205 Y1.5162
G01 X29.7356 Y1.4564
G01 X29.7578 Y1.3945
G01 X29.7859 Y1.3350
G01 X29.8152 Y1.2857
G01 X29.8221 Y1.2752
G01 X29.8589 Y1.2258
G01 X29.9031 Y1.1771
G01 X30.6181 Y0.4621
G01 X30.6636 Y0.4206
G01 X30.6734 Y0.4128
G01 X30.7196 Y0.3787
G01 X30.7688 Y0.3490
G01 X30.7835 Y0.3411
G01 X30.8355 Y0.3168
G01 X30.8895 Y0.2972
G01 X30.9055 Y0.2924
G01 X30.9612 Y0.2786
G01 X31.0263 Y0.2690
G01 X31.0920 Y0.2657
G01 X39.9512 Y0.2657
G01 X40.0169 Y0.2690
G01 X40.0737 Y0.2772
G01 X40.0901 Y0.2805
G01 X40.1377 Y0.2924
G01 X40.1497 Y0.2959
G01 X40.2077 Y0.3168
G01 X40.2672 Y0.3449
G01 X40.3236 Y0.3787
G01 X40.3698 Y0.4128
G01 X40.3827 Y0.4233
G01 X40.4251 Y0.4621
G01 X40.8770 Y0.9140
G01 X40.9212 Y0.9627
G01 X40.9580 Y1.0121
G01 X40.9649 Y1.0226
G01 X40.9942 Y1.0719
G01 X41.0223 Y1.1314
G01 X41.0445 Y1.1933
G01 X41.0586 Y1.2490
G01 X41.0612 Y1.2612
G01 X41.0701 Y1.3222
G01 X41.0733 Y1.3837
G01 X41.0734 Y1.6735
G01 X41.0966 Y1.6874
G01 X41.1071 Y1.6943
G01 X41.1775 Y1.7464
G01 X41.1873 Y1.7542
G01 X41.2582 Y1.8188
G01 X41.3228 Y1.8897
G01 X41.3306 Y1.8995
G01 X41.3851 Y1.9733
G01 X41.4324 Y2.0519
G01 X41.4403 Y2.0666
G01 X41.4760 Y2.1420
G01 X41.4824 Y2.1574
G01 X41.5131 Y2.2439
G01 X41.5356 Y2.3329
G01 X41.5388 Y2.3492
G01 X41.5521 Y2.4400
G01 X41.5570 Y2.5400
G01 X41.5527 Y2.6317
G01 X41.5511 Y2.6483
G01 X41.5388 Y2.7308
G01 X41.5365 Y2.7431
G01 X41.5131 Y2.8361
G01 X41.4824 Y2.9226
G01 X41.4760 Y2.9380
G01 X41.4403 Y3.0134
G01 X41.4345 Y3.0245
G01 X41.3851 Y3.1067
G01 X41.3281 Y3.1838
G01 X41.3200 Y3.1934
G01 X41.2612 Y3.2583
G01 X41.2522 Y3.2670
G01 X41.2227 Y3.2938
G01 X49.2311 Y11.3022
G01 X49.3000 Y11.2990
G01 X49.4000 Y11.3039
G01 X49.4990 Y11.3186
G01 X49.5921 Y11.3418
G01 X49.6040 Y11.3455
G01 X49.6903 Y11.3766
G01 X49.7734 Y11.4157
G01 X49.7881 Y11.4236
G01 X49.8596 Y11.4664
G01 X49.8701 Y11.4733
G01 X49.9471 Y11.5305
G01 X50.0212 Y11.5978
G01 X50.0885 Y11.6719
G01 X50.1433 Y11.7455
G01 X50.1526 Y11.7594
G01 X50.1996 Y11.8382
G01 X50.2390 Y11.9210
G01 X50.2454 Y11.9364
G01 X50.2735 Y12.0150
G01 X50.2772 Y12.0269
G01 X50.2807 Y12.0407
G01 X50.2807 Y10.5646
G01 X47.7233 Y8.0072
G01 X46.7309 Y8.0072
G01 X46.6652 Y8.0039
G01 X46.6084 Y7.9957
G01 X46.5920 Y7.9924
G01 X46.5363 Y7.9783
G01 X46.4744 Y7.9561
G01 X46.4224 Y7.9318
G01 X46.4077 Y7.9239
G01 X46.3585 Y7.8942
G01 X46.3057 Y7.8550
G01 X46.2570 Y7.8108
G01 X42.6933 Y4.2471
G01 X42.6491 Y4.1984
G01 X42.6123 Y4.1490
G01 X42.6054 Y4.1385
G01 X42.5761 Y4.0892
G01 X42.5480 Y4.0297
G01 X42.5258 Y3.9678
G01 X42.5117 Y3.9121
G01 X42.5084 Y3.8957
G01 X42.5002 Y3.8389
G01 X42.4970 Y3.7774
G01 X42.4969 Y3.3784
G01 X42.4299 Y3.3285
G01 X42.3618 Y3.2670
G01 X42.3500 Y3.2552
G01 X42.2940 Y3.1934
G01 X42.2834 Y3.1805
G01 X42.2289 Y3.1067
G01 X42.1774 Y3.0208
G01 X42.1346 Y2.9303
G01 X42.1035 Y2.8440
G01 X42.0987 Y2.8280
G01 X42.0766 Y2.7390
G01 X42.0629 Y2.6483
G01 X42.0613 Y2.6317
G01 X42.0572 Y2.5483
G01 X42.0572 Y2.5317
G01 X42.0619 Y2.4400
G01 X42.0752 Y2.3492
G01 X42.0784 Y2.3329
G01 X42.1009 Y2.2439
G01 X42.1316 Y2.1574
G01 X42.1380 Y2.1420
G01 X42.1774 Y2.0592
G01 X42.2289 Y1.9733
G01 X42.2834 Y1.8995
G01 X42.2940 Y1.8866
G01 X42.3558 Y1.8188
G01 X42.4236 Y1.7570
G01 X42.4365 Y1.7464
G01 X42.5069 Y1.6943
G01 X42.5174 Y1.6874
G01 X42.5962 Y1.6404
G01 X42.6790 Y1.6010
G01 X42.6944 Y1.5946
G01 X42.7730 Y1.5665
G01 X42.7890 Y1.5617
G01 X42.8780 Y1.5396
G01 X42.9770 Y1.5249
G01 X43.0770 Y1.5200
G01 X43.1770 Y1.5249
G01 X43.2760 Y1.5396
G01 X43.3650 Y1.5617
G01 X43.3810 Y1.5665
G01 X43.4596 Y1.5946
G01 X43.4750 Y1.6010
G01 X43.5578 Y1.6404
G01 X43.6437 Y1.6919
G01 X43.7241 Y1.7515
G01 X43.7922 Y1.8130
G01 X43.8040 Y1.8248
G01 X43.8655 Y1.8929
G01 X43.9251 Y1.9733
G01 X43.9766 Y2.0592
G01 X44.0194 Y2.1497
G01 X44.0531 Y2.2439
G01 X44.0774 Y2.3410
G01 X44.0921 Y2.4400
G01 X44.0969 Y2.5358
G01 X44.0968 Y2.5483
G01 X44.0921 Y2.6400
G01 X44.0774 Y2.7390
G01 X44.0531 Y2.8361
G01 X44.0209 Y2.9265
G01 X44.0160 Y2.9380
G01 X43.9766 Y3.0208
G01 X43.9274 Y3.1032
G01 X43.9203 Y3.1135
G01 X43.8681 Y3.1838
G01 X43.8600 Y3.1934
G01 X43.8375 Y3.2183
G01 X43.8375 Y3.4956
G01 X47.0085 Y6.6666
G01 X48.0009 Y6.6666
G01 X48.0666 Y6.6699
G01 X48.1234 Y6.6781
G01 X48.1398 Y6.6814
G01 X48.1955 Y6.6955
G01 X48.2574 Y6.7177
G01 X48.3094 Y6.7420
G01 X48.3241 Y6.7499
G01 X48.3733 Y6.7796
G01 X48.4261 Y6.8188
G01 X48.4748 Y6.8630
G01 X51.4249 Y9.8131
G01 X51.4637 Y9.8555
G01 X51.4742 Y9.8684
G01 X51.5083 Y9.9146
G01 X51.5380 Y9.9638
G01 X51.5459 Y9.9785
G01 X51.5702 Y10.0305
G01 X51.5898 Y10.0845
G01 X51.5946 Y10.1005
G01 X51.6084 Y10.1562
G01 X51.6170 Y10.2130
G01 X51.6186 Y10.2296
G01 X51.6213 Y10.2870
G01 X51.6213 Y25.5270
G01 X51.6186 Y25.5844
G01 X51.6176 Y25.5968
G01 X51.6084 Y25.6578
G01 X51.5924 Y25.7216
G01 X51.5702 Y25.7835
G01 X51.5459 Y25.8355
G01 X51.5380 Y25.8502
G01 X51.5106 Y25.8959
G01 X51.5035 Y25.9062
G01 X51.4691 Y25.9522
G01 X51.4279 Y25.9980
G01 X49.2659 Y28.1599
G01 X49.2235 Y28.1987
G01 X49.2106 Y28.2092
G01 X49.1644 Y28.2433
G01 X49.1152 Y28.2730
G01 X49.1005 Y28.2809
G01 X49.0485 Y28.3052
G01 X48.9945 Y28.3248
G01 X48.9785 Y28.3296
G01 X48.9228 Y28.3434
G01 X48.8660 Y28.3520
G01 X48.8494 Y28.3536
G01 X48.7920 Y28.3563
G01 X32.2820 Y28.3563
G01 X32.2205 Y28.3534
G01 X32.2080 Y28.3520
G01 X32.1595 Y28.3448
G01 X32.1431 Y28.3415
G01 X32.0874 Y28.3274
G01 X32.0255 Y28.3052
G01 X31.9660 Y28.2771
G01 X31.9167 Y28.2478
G01 X31.9028 Y28.2385
G01 X31.8634 Y28.2092
G01 X31.8536 Y28.2014
G01 X31.8081 Y28.1599
G01 X30.9001 Y27.2520
G01 X30.8643 Y27.2125
G01 X30.8538 Y27.1996
G01 X30.8197 Y27.1534
G01 X30.7900 Y27.1042
G01 X30.7821 Y27.0895
G01 X30.7578 Y27.0375
G01 X30.7382 Y26.9835
G01 X30.7344 Y26.9716
G01 X30.7215 Y26.9199
G01 X30.7182 Y26.9035
G01 X30.7100 Y26.8467
G01 X30.7070 Y26.7893
G01 X30.7067 Y24.9969
G01 X30.5881 Y24.9257
G01 X30.4827 Y24.8478
G01 X30.4698 Y24.8372
G01 X30.3729 Y24.7491
G01 X30.2793 Y24.6458
G01 X30.2011 Y24.5407
G01 X30.1918 Y24.5269
G01 X30.1247 Y24.4144
G01 X30.0651 Y24.2884
G01 X30.0208 Y24.1651
G01 X30.0159 Y24.1492
G01 X29.9843 Y24.0220
G01 X29.9638 Y23.8842
G01 X29.9572 Y23.7533
G01 X29.9572 Y23.7367
G01 X29.9638 Y23.6058
G01 X29.9843 Y23.4680
G01 X30.0159 Y23.3408
G01 X30.0208 Y23.3249
G01 X30.0621 Y23.2094
G01 X30.0685 Y23.1940
G01 X30.1247 Y23.0756
G01 X30.1963 Y22.9561
G01 X30.2793 Y22.8442
G01 X30.3729 Y22.7409
G01 X30.4762 Y22.6473
G01 X30.5881 Y22.5643
G01 X30.7076 Y22.4927
G01 X30.8260 Y22.4365
G01 X30.8414 Y22.4301
G01 X30.9569 Y22.3888
G01 X30.9728 Y22.3839
G01 X31.1000 Y22.3523
G01 X31.2378 Y22.3318
G01 X31.3770 Y22.3250
G01 X31.5162 Y22.3318
G01 X31.6540 Y22.3523
G01 X31.7812 Y22.3839
G01 X31.7971 Y22.3888
G01 X31.9126 Y22.4301
G01 X31.9280 Y22.4365
G01 X32.0464 Y22.4927
G01 X32.1659 Y22.5643
G01 X32.2778 Y22.6473
G01 X32.3811 Y22.7409
G01 X32.4747 Y22.8442
G01 X32.5529 Y22.9493
G01 X32.5622 Y22.9631
G01 X32.6252 Y23.0684
G01 X32.6331 Y23.0831
G01 X32.6889 Y23.2016
G01 X32.7332 Y23.3249
G01 X32.7370 Y23.3368
G01 X32.7697 Y23.4680
G01 X32.7902 Y23.6058
G01 X32.7970 Y23.7450
G01 X32.7908 Y23.8759
G01 X32.7891 Y23.8925
G01 X32.7711 Y24.0138
G01 X32.7679 Y24.0302
G01 X32.7359 Y24.1572
G01 X32.6889 Y24.2884
G01 X32.6293 Y24.4144
G01 X32.5622 Y24.5269
G01 X32.5529 Y24.5407
G01 X32.4798 Y24.6393
G01 X32.4692 Y24.6522
G01 X32.3811 Y24.7491
G01 X32.2778 Y24.8427
G01 X32.1659 Y24.9257
G01 X32.0473 Y24.9969
G01 X32.0473 Y26.5034
G01 X32.5596 Y27.0157
G01 X48.5144 Y27.0157
G01 X50.2807 Y25.2494
G01 X50.2807 Y22.7573
G01 X50.2772 Y22.7711
G01 X50.2735 Y22.7830
G01 X50.2454 Y22.8616
G01 X50.2407 Y22.8732
G01 X50.1996 Y22.9598
G01 X50.1504 Y23.0422
G01 X50.1433 Y23.0525
G01 X50.0936 Y23.1195
G01 X50.0858 Y23.1293
G01 X50.0212 Y23.2002
G01 X49.9703 Y23.2467
G01 X49.9700 Y24.7733
G01 X49.9674 Y24.8265
G01 X49.9660 Y24.8390
G01 X49.9574 Y24.8958
G01 X49.9436 Y24.9515
G01 X49.9388 Y24.9675
G01 X49.9192 Y25.0215
G01 X49.8949 Y25.0735
G01 X49.8891 Y25.0846
G01 X49.8573 Y25.1374
G01 X49.8232 Y25.1836
G01 X49.8127 Y25.1965
G01 X49.7769 Y25.2360
G01 X48.5039 Y26.5089
G01 X48.4615 Y26.5477
G01 X48.4486 Y26.5582
G01 X48.4058 Y26.5899
G01 X48.3953 Y26.5968
G01 X48.3460 Y26.6261
G01 X48.2865 Y26.6542
G01 X48.2246 Y26.6764
G01 X48.1689 Y26.6905
G01 X48.1525 Y26.6938
G01 X48.0957 Y26.7020
G01 X48.0300 Y26.7053
G01 X35.5840 Y26.7053
G01 X35.5266 Y26.7026
G01 X35.5100 Y26.7010
G01 X35.4532 Y26.6924
G01 X35.3975 Y26.6786
G01 X35.3815 Y26.6738
G01 X35.3275 Y26.6542
G01 X35.2680 Y26.6261
G01 X35.2187 Y26.5968
G01 X35.2048 Y26.5875
G01 X35.1654 Y26.5582
G01 X35.1556 Y26.5504
G01 X35.1101 Y26.5089
G01 X34.1867 Y25.5855
G01 X34.1425 Y25.5368
G01 X34.1033 Y25.4840
G01 X34.0695 Y25.4276
G01 X34.0448 Y25.3757
G01 X34.0398 Y25.3642
G01 X34.0192 Y25.3062
G01 X34.0051 Y25.2505
G01 X34.0025 Y25.2383
G01 X33.9946 Y25.1856
G01 X33.9932 Y25.1731
G01 X33.9904 Y25.1158
G01 X33.9903 Y25.0595
G01 X33.9760 Y25.0535
G01 X33.8651 Y25.0011
G01 X33.8504 Y24.9932
G01 X33.7381 Y24.9257
G01 X33.6262 Y24.8427
G01 X33.5290 Y24.7548
G01 X33.5172 Y24.7430
G01 X33.4293 Y24.6458
G01 X33.3487 Y24.5374
G01 X33.3418 Y24.5269
G01 X33.2788 Y24.4216
G01 X33.2709 Y24.4069
G01 X33.2151 Y24.2884
G01 X33.1681 Y24.1572
G01 X33.1361 Y24.0302
G01 X33.1329 Y24.0138
G01 X33.1138 Y23.8842
G01 X33.1072 Y23.7533
G01 X33.1072 Y23.7367
G01 X33.1132 Y23.6141
G01 X33.1149 Y23.5975
G01 X33.1343 Y23.4680
G01 X33.1659 Y23.3408
G01 X33.1708 Y23.3249
G01 X33.2151 Y23.2016
G01 X33.2709 Y23.0831
G01 X33.2788 Y23.0684
G01 X33.3463 Y22.9561
G01 X33.4242 Y22.8507
G01 X33.4348 Y22.8378
G01 X33.5229 Y22.7409
G01 X33.6262 Y22.6473
G01 X33.7313 Y22.5691
G01 X33.7451 Y22.5598
G01 X33.8576 Y22.4927
G01 X33.9836 Y22.4331
G01 X34.1069 Y22.3888
G01 X34.1228 Y22.3839
G01 X34.2500 Y22.3523
G01 X34.3795 Y22.3329
G01 X34.3961 Y22.3312
G01 X34.5270 Y22.3250
G01 X34.6579 Y22.3312
G01 X34.6745 Y22.3329
G01 X34.8040 Y22.3523
G01 X34.9312 Y22.3839
G01 X34.9471 Y22.3888
G01 X35.0704 Y22.4331
G01 X35.1889 Y22.4889
G01 X35.2036 Y22.4968
G01 X35.3089 Y22.5598
G01 X35.3227 Y22.5691
G01 X35.4278 Y22.6473
G01 X35.5250 Y22.7352
G01 X35.5368 Y22.7470
G01 X35.6247 Y22.8442
G01 X35.7077 Y22.9561
G01 X35.7752 Y23.0684
G01 X35.7831 Y23.0831
G01 X35.8355 Y23.1940
G01 X35.8405 Y23.2055
G01 X35.8859 Y23.3328
G01 X35.9197 Y23.4680
G01 X35.9402 Y23.6058
G01 X35.9468 Y23.7367
G01 X35.9468 Y23.7533
G01 X35.9408 Y23.8759
G01 X35.9391 Y23.8925
G01 X35.9197 Y24.0220
G01 X35.8870 Y24.1532
G01 X35.8832 Y24.1651
G01 X35.8419 Y24.2806
G01 X35.8355 Y24.2960
G01 X35.7793 Y24.4144
G01 X35.7122 Y24.5269
G01 X35.7053 Y24.5374
G01 X35.6247 Y24.6458
G01 X35.5340 Y24.7461
G01 X35.5250 Y24.7548
G01 X35.4310 Y24.8400
G01 X35.4213 Y24.8478
G01 X35.3773 Y24.8804
G01 X35.8616 Y25.3647
G01 X47.7524 Y25.3647
G01 X48.6297 Y24.4874
G01 X48.6297 Y23.2467
G01 X48.5788 Y23.2002
G01 X48.5170 Y23.1324
G01 X48.5064 Y23.1195
G01 X48.4567 Y23.0525
G01 X48.4474 Y23.0386
G01 X48.4004 Y22.9598
G01 X48.3610 Y22.8770
G01 X48.3546 Y22.8616
G01 X48.3239 Y22.7751
G01 X48.2996 Y22.6780
G01 X48.2849 Y22.5790
G01 X48.2802 Y22.4873
G01 X48.2802 Y22.4707
G01 X48.2843 Y22.3873
G01 X48.2859 Y22.3707
G01 X48.2996 Y22.2800
G01 X48.3217 Y22.1910
G01 X48.3265 Y22.1750
G01 X48.3576 Y22.0887
G01 X48.4004 Y21.9982
G01 X48.4519 Y21.9123
G01 X48.5089 Y21.8352
G01 X48.5170 Y21.8256
G01 X48.5730 Y21.7638
G01 X48.5848 Y21.7520
G01 X48.6529 Y21.6905
G01 X48.7265 Y21.6357
G01 X48.7404 Y21.6264
G01 X48.8192 Y21.5794
G01 X48.9020 Y21.5400
G01 X48.9174 Y21.5336
G01 X49.0039 Y21.5029
G01 X49.0929 Y21.4804
G01 X49.1092 Y21.4772
G01 X49.2000 Y21.4639
G01 X49.3000 Y21.4590
G01 X49.3917 Y21.4633
G01 X49.4083 Y21.4649
G01 X49.4990 Y21.4786
G01 X49.5880 Y21.5007
G01 X49.6040 Y21.5055
G01 X49.6903 Y21.5366
G01 X49.7808 Y21.5794
G01 X49.8596 Y21.6264
G01 X49.8735 Y21.6357
G01 X49.9471 Y21.6905
G01 X50.0152 Y21.7520
G01 X50.0270 Y21.7638
G01 X50.0830 Y21.8256
G01 X50.0936 Y21.8385
G01 X50.1481 Y21.9123
G01 X50.1954 Y21.9909
G01 X50.2033 Y22.0056
G01 X50.2424 Y22.0887
G01 X50.2748 Y22.1789
G01 X50.2807 Y22.2007
G01 X50.2807 Y12.5973
G01 X50.2772 Y12.6111
G01 X50.2735 Y12.6230
G01 X50.2454 Y12.7016
G01 X50.2407 Y12.7132
G01 X50.1996 Y12.7998
G01 X50.1504 Y12.8822
G01 X50.1433 Y12.8925
G01 X50.0936 Y12.9595
G01 X50.0858 Y12.9693
G01 X50.0212 Y13.0402
G01 X49.9703 Y13.0867
G01 X49.9702 Y19.1812
G01 X49.9670 Y19.2427
G01 X49.9574 Y19.3078
G01 X49.9414 Y19.3716
G01 X49.9192 Y19.4335
G01 X49.8911 Y19.4930
G01 X49.8573 Y19.5494
G01 X49.8181 Y19.6022
G01 X49.7797 Y19.6449
G01 X47.9930 Y21.4319
G01 X47.9535 Y21.4677
G01 X47.9406 Y21.4782
G01 X47.8944 Y21.5123
G01 X47.8452 Y21.5420
G01 X47.8305 Y21.5499
G01 X47.7785 Y21.5742
G01 X47.7166 Y21.5964
G01 X47.6609 Y21.6105
G01 X47.6445 Y21.6138
G01 X47.5877 Y21.6220
G01 X47.5220 Y21.6253
G01 X43.1006 Y21.6253
G01 X41.9044 Y22.8215
G01 X41.9220 Y22.8410
G01 X41.9273 Y22.8474
G01 X42.0053 Y22.9526
G01 X42.0122 Y22.9631
G01 X42.0793 Y23.0756
G01 X42.1389 Y23.2016
G01 X42.1832 Y23.3249
G01 X42.1881 Y23.3408
G01 X42.2179 Y23.4598
G01 X42.2211 Y23.4762
G01 X42.2402 Y23.6058
G01 X42.2468 Y23.7367
G01 X42.2468 Y23.7533
G01 X42.2402 Y23.8842
G01 X42.2211 Y24.0138
G01 X42.2189 Y24.0261
G01 X42.1881 Y24.1492
G01 X42.1832 Y24.1651
G01 X42.1389 Y24.2884
G01 X42.0831 Y24.4069
G01 X42.0752 Y24.4216
G01 X42.0077 Y24.5339
G01 X41.9247 Y24.6458
G01 X41.8311 Y24.7491
G01 X41.7342 Y24.8372
G01 X41.7213 Y24.8478
G01 X41.6227 Y24.9209
G01 X41.6089 Y24.9302
G01 X41.4964 Y24.9973
G01 X41.3780 Y25.0535
G01 X41.3626 Y25.0599
G01 X41.2392 Y25.1039
G01 X41.1040 Y25.1377
G01 X40.9662 Y25.1582
G01 X40.8353 Y25.1648
G01 X40.8187 Y25.1648
G01 X40.6878 Y25.1582
G01 X40.5582 Y25.1391
G01 X40.5418 Y25.1359
G01 X40.4228 Y25.1061
G01 X40.4069 Y25.1012
G01 X40.2836 Y25.0569
G01 X40.1576 Y24.9973
G01 X40.0381 Y24.9257
G01 X39.9262 Y24.8427
G01 X39.8229 Y24.7491
G01 X39.7293 Y24.6458
G01 X39.6463 Y24.5339
G01 X39.5788 Y24.4216
G01 X39.5728 Y24.4107
G01 X39.5151 Y24.2884
G01 X39.4708 Y24.1651
G01 X39.4659 Y24.1492
G01 X39.4343 Y24.0220
G01 X39.4149 Y23.8925
G01 X39.4132 Y23.8759
G01 X39.4070 Y23.7450
G01 X39.4132 Y23.6141
G01 X39.4149 Y23.5975
G01 X39.4343 Y23.4680
G01 X39.4659 Y23.3408
G01 X39.4708 Y23.3249
G01 X39.5151 Y23.2016
G01 X39.5709 Y23.0831
G01 X39.5788 Y23.0684
G01 X39.6418 Y22.9631
G01 X39.6487 Y22.9526
G01 X39.7293 Y22.8442
G01 X39.8229 Y22.7409
G01 X39.9262 Y22.6473
G01 X40.0346 Y22.5667
G01 X40.0451 Y22.5598
G01 X40.1576 Y22.4927
G01 X40.2798 Y22.4347
G01 X40.2914 Y22.4301
G01 X40.4108 Y22.3874
G01 X40.4228 Y22.3839
G01 X40.4540 Y22.3761
G01 X42.3491 Y20.4811
G01 X42.3978 Y20.4369
G01 X42.4438 Y20.4025
G01 X42.4577 Y20.3932
G01 X42.5070 Y20.3639
G01 X42.5589 Y20.3392
G01 X42.5743 Y20.3328
G01 X42.6284 Y20.3136
G01 X42.6841 Y20.2995
G01 X42.7005 Y20.2962
G01 X42.7573 Y20.2880
G01 X42.8188 Y20.2848
G01 X47.2444 Y20.2847
G01 X48.6297 Y18.8994
G01 X48.6297 Y13.0867
G01 X48.5788 Y13.0402
G01 X48.5170 Y12.9724
G01 X48.5064 Y12.9595
G01 X48.4543 Y12.8891
G01 X48.4474 Y12.8786
G01 X48.4004 Y12.7998
G01 X48.3576 Y12.7093
G01 X48.3239 Y12.6151
G01 X48.3014 Y12.5261
G01 X48.2988 Y12.5139
G01 X48.2859 Y12.4273
G01 X48.2843 Y12.4107
G01 X48.2800 Y12.3190
G01 X48.2832 Y12.2501
G01 X39.9981 Y3.9649
G01 X39.9539 Y3.9162
G01 X39.9147 Y3.8634
G01 X39.8850 Y3.8142
G01 X39.8771 Y3.7995
G01 X39.8528 Y3.7475
G01 X39.8332 Y3.6935
G01 X39.8284 Y3.6775
G01 X39.8155 Y3.6258
G01 X39.8132 Y3.6135
G01 X39.8050 Y3.5567
G01 X39.8018 Y3.4952
G01 X39.8017 Y3.2461
G01 X39.7485 Y3.1871
G01 X39.6889 Y3.1067
G01 X39.6374 Y3.0208
G01 X39.5980 Y2.9380
G01 X39.5916 Y2.9226
G01 X39.5635 Y2.8440
G01 X39.5587 Y2.8280
G01 X39.5366 Y2.7390
G01 X39.5224 Y2.6441
G01 X39.5213 Y2.6317
G01 X39.5170 Y2.5400
G01 X39.5219 Y2.4400
G01 X39.5366 Y2.3410
G01 X39.5598 Y2.2479
G01 X39.5635 Y2.2360
G01 X39.5946 Y2.1497
G01 X39.6355 Y2.0629
G01 X39.6416 Y2.0519
G01 X39.6889 Y1.9733
G01 X39.7328 Y1.9137
G01 X39.7328 Y1.6655
G01 X39.6736 Y1.6063
G01 X38.6673 Y1.6063
G01 X38.6673 Y1.7723
G01 X38.7182 Y1.8188
G01 X38.7855 Y1.8929
G01 X38.8451 Y1.9733
G01 X38.8924 Y2.0519
G01 X38.9003 Y2.0666
G01 X38.9360 Y2.1420
G01 X38.9424 Y2.1574
G01 X38.9731 Y2.2439
G01 X38.9956 Y2.3329
G01 X38.9988 Y2.3492
G01 X39.0121 Y2.4400
G01 X39.0168 Y2.5317
G01 X39.0168 Y2.5483
G01 X39.0121 Y2.6400
G01 X38.9988 Y2.7308
G01 X38.9956 Y2.7471
G01 X38.9753 Y2.8280
G01 X38.9718 Y2.8401
G01 X38.9394 Y2.9303
G01 X38.9003 Y3.0134
G01 X38.8924 Y3.0281
G01 X38.8496 Y3.0996
G01 X38.8403 Y3.1135
G01 X38.7855 Y3.1871
G01 X38.7182 Y3.2612
G01 X38.6441 Y3.3285
G01 X38.5705 Y3.3833
G01 X38.5566 Y3.3926
G01 X38.4851 Y3.4354
G01 X38.4704 Y3.4433
G01 X38.3873 Y3.4824
G01 X38.2931 Y3.5161
G01 X38.1960 Y3.5404
G01 X38.1053 Y3.5541
G01 X38.0887 Y3.5557
G01 X37.9970 Y3.5600
G01 X37.9053 Y3.5557
G01 X37.8887 Y3.5541
G01 X37.7980 Y3.5404
G01 X37.7009 Y3.5161
G01 X37.6067 Y3.4824
G01 X37.5236 Y3.4433
G01 X37.5089 Y3.4354
G01 X37.4374 Y3.3926
G01 X37.4235 Y3.3833
G01 X37.3499 Y3.3285
G01 X37.2758 Y3.2612
G01 X37.2085 Y3.1871
G01 X37.1537 Y3.1135
G01 X37.1444 Y3.0996
G01 X37.1016 Y3.0281
G01 X37.0937 Y3.0134
G01 X37.0546 Y2.9303
G01 X37.0222 Y2.8401
G01 X37.0187 Y2.8280
G01 X36.9984 Y2.7471
G01 X36.9952 Y2.7308
G01 X36.9819 Y2.6400
G01 X36.9772 Y2.5483
G01 X36.9772 Y2.5317
G01 X36.9819 Y2.4400
G01 X36.9952 Y2.3492
G01 X36.9984 Y2.3329
G01 X37.0209 Y2.2439
G01 X37.0516 Y2.1574
G01 X37.0580 Y2.1420
G01 X37.0937 Y2.0666
G01 X37.1016 Y2.0519
G01 X37.1489 Y1.9733
G01 X37.2085 Y1.8929
G01 X37.2758 Y1.8188
G01 X37.3267 Y1.7723
G01 X37.3267 Y1.6063
G01 X35.8660 Y1.6063
G01 X35.9378 Y1.6404
G01 X36.0166 Y1.6874
G01 X36.0305 Y1.6967
G01 X36.1041 Y1.7515
G01 X36.1782 Y1.8188
G01 X36.2400 Y1.8866
G01 X36.2506 Y1.8995
G01 X36.3051 Y1.9733
G01 X36.3524 Y2.0519
G01 X36.3603 Y2.0666
G01 X36.3994 Y2.1497
G01 X36.4331 Y2.2439
G01 X36.4556 Y2.3329
G01 X36.4588 Y2.3492
G01 X36.4721 Y2.4400
G01 X36.4768 Y2.5317
G01 X36.4768 Y2.5483
G01 X36.4721 Y2.6400
G01 X36.4574 Y2.7390
G01 X36.4331 Y2.8361
G01 X36.4024 Y2.9226
G01 X36.3977 Y2.9342
G01 X36.3566 Y3.0208
G01 X36.3096 Y3.0996
G01 X36.3003 Y3.1135
G01 X36.2506 Y3.1805
G01 X36.2400 Y3.1934
G01 X36.1782 Y3.2612
G01 X36.1273 Y3.3077
G01 X36.1273 Y4.3180
G01 X36.1244 Y4.3795
G01 X36.1230 Y4.3920
G01 X36.1144 Y4.4488
G01 X36.1006 Y4.5045
G01 X36.0958 Y4.5205
G01 X36.0762 Y4.5745
G01 X36.0519 Y4.6265
G01 X36.0440 Y4.6412
G01 X36.0143 Y4.6904
G01 X35.9751 Y4.7432
G01 X35.9309 Y4.7919
G01 X34.7850 Y5.9379
G01 X34.7392 Y5.9791
G01 X34.6864 Y6.0183
G01 X34.6300 Y6.0521
G01 X34.5743 Y6.0786
G01 X34.5627 Y6.0832
G01 X34.5086 Y6.1024
G01 X34.4448 Y6.1184
G01 X34.3797 Y6.1280
G01 X34.3182 Y6.1312
G01 X32.8143 Y6.1313
G01 X32.8281 Y6.1348
G01 X32.8400 Y6.1385
G01 X32.9186 Y6.1666
G01 X32.9302 Y6.1713
G01 X33.0168 Y6.2124
G01 X33.0992 Y6.2616
G01 X33.1095 Y6.2687
G01 X33.1765 Y6.3184
G01 X33.1863 Y6.3262
G01 X33.2572 Y6.3908
G01 X33.3037 Y6.4417
G01 X40.1160 Y6.4417
G01 X40.1817 Y6.4450
G01 X40.2385 Y6.4532
G01 X40.2549 Y6.4565
G01 X40.3106 Y6.4706
G01 X40.3647 Y6.4898
G01 X40.3801 Y6.4962
G01 X40.4320 Y6.5209
G01 X40.4813 Y6.5502
G01 X40.4952 Y6.5595
G01 X40.5412 Y6.5939
G01 X40.5839 Y6.6323
G01 X42.3331 Y8.3812
G01 X42.4020 Y8.3780
G01 X42.4937 Y8.3823
G01 X42.5103 Y8.3839
G01 X42.5928 Y8.3962
G01 X42.6091 Y8.3994
G01 X42.6981 Y8.4219
G01 X42.7885 Y8.4541
G01 X42.8000 Y8.4590
G01 X42.8828 Y8.4984
G01 X42.9687 Y8.5499
G01 X43.0491 Y8.6095
G01 X43.1203 Y8.6738
G01 X43.1290 Y8.6828
G01 X43.1905 Y8.7509
G01 X43.2501 Y8.8313
G01 X43.3016 Y8.9172
G01 X43.3410 Y9.0000
G01 X43.3459 Y9.0115
G01 X43.3781 Y9.1019
G01 X43.4006 Y9.1909
G01 X43.4038 Y9.2072
G01 X43.4161 Y9.2897
G01 X43.4177 Y9.3063
G01 X43.4220 Y9.3980
G01 X43.4188 Y9.4669
G01 X46.0289 Y12.0770
G01 X46.0701 Y12.1228
G01 X46.1045 Y12.1688
G01 X46.1138 Y12.1827
G01 X46.1411 Y12.2284
G01 X46.1469 Y12.2395
G01 X46.1712 Y12.2915
G01 X46.1908 Y12.3455
G01 X46.1946 Y12.3574
G01 X46.2075 Y12.4091
G01 X46.2108 Y12.4255
G01 X46.2190 Y12.4823
G01 X46.2223 Y12.5480
G01 X46.2223 Y16.9950
G01 X46.8020 Y16.9950
G01 X46.8145 Y16.9955
G01 X46.8311 Y16.9975
G01 X46.8433 Y17.0001
G01 X46.8553 Y17.0036
G01 X46.8671 Y17.0079
G01 X46.8784 Y17.0132
G01 X46.8894 Y17.0192
G01 X46.8999 Y17.0260
G01 X46.9066 Y17.0310
G01 X46.9162 Y17.0390
G01 X46.9251 Y17.0478
G01 X46.9334 Y17.0572
G01 X46.9410 Y17.0671
G01 X46.9478 Y17.0776
G01 X46.9519 Y17.0849
G01 X46.9574 Y17.0961
G01 X46.9621 Y17.1077
G01 X46.9658 Y17.1197
G01 X46.9687 Y17.1318
G01 X46.9707 Y17.1442
G01 X46.9715 Y17.1525
G01 X46.9720 Y17.1650
G01 X46.9720 Y19.6650
G01 X46.9712 Y19.6817
G01 X46.9695 Y19.6941
G01 X46.9679 Y19.7022
G01 X46.9634 Y19.7183
G01 X46.9574 Y19.7339
G01 X46.9519 Y19.7451
G01 X46.9456 Y19.7559
G01 X46.9385 Y19.7663
G01 X46.9307 Y19.7760
G01 X46.9222 Y19.7852
G01 X46.9130 Y19.7937
G01 X46.9033 Y19.8015
G01 X46.8929 Y19.8086
G01 X46.8821 Y19.8149
G01 X46.8709 Y19.8204
G01 X46.8593 Y19.8251
G01 X46.8473 Y19.8288
G01 X46.8352 Y19.8317
G01 X46.8269 Y19.8332
G01 X46.8145 Y19.8345
G01 X46.8020 Y19.8350
G01 X44.2978 Y19.8349
G01 X44.2853 Y19.8342
G01 X44.2771 Y19.8332
G01 X44.2688 Y19.8317
G01 X44.2567 Y19.8288
G01 X44.2487 Y19.8264
G01 X44.2369 Y19.8221
G01 X44.2293 Y19.8187
G01 X44.2182 Y19.8129
G01 X44.2111 Y19.8086
G01 X44.2007 Y19.8015
G01 X44.1942 Y19.7964
G01 X44.1848 Y19.7881
G01 X44.1789 Y19.7822
G01 X44.1706 Y19.7728
G01 X44.1630 Y19.7629
G01 X44.1584 Y19.7559
G01 X44.1521 Y19.7451
G01 X44.1466 Y19.7339
G01 X44.1434 Y19.7262
G01 X44.1393 Y19.7143
G01 X44.1361 Y19.7022
G01 X44.1338 Y19.6899
G01 X44.1325 Y19.6775
G01 X44.1320 Y19.6650
G01 X44.1320 Y17.1650
G01 X44.1322 Y17.1567
G01 X44.1333 Y17.1442
G01 X44.1353 Y17.1318
G01 X44.1371 Y17.1237
G01 X44.1393 Y17.1157
G01 X44.1434 Y17.1038
G01 X44.1483 Y17.0923
G01 X44.1541 Y17.0812
G01 X44.1607 Y17.0706
G01 X44.1680 Y17.0604
G01 X44.1760 Y17.0508
G01 X44.1848 Y17.0419
G01 X44.1942 Y17.0336
G01 X44.2041 Y17.0260
G01 X44.2146 Y17.0192
G01 X44.2256 Y17.0132
G01 X44.2369 Y17.0079
G01 X44.2487 Y17.0036
G01 X44.2607 Y17.0001
G01 X44.2729 Y16.9975
G01 X44.2853 Y16.9958
G01 X44.3020 Y16.9950
G01 X44.8817 Y16.9950
G01 X44.8817 Y16.0876
G01 X44.1964 Y15.4023
G01 X40.4336 Y15.4023
G01 X39.9223 Y15.9136
G01 X39.9223 Y17.1631
G01 X40.0409 Y17.2343
G01 X40.1528 Y17.3173
G01 X40.2561 Y17.4109
G01 X40.3497 Y17.5142
G01 X40.4327 Y17.6261
G01 X40.5043 Y17.7456
G01 X40.5639 Y17.8716
G01 X40.6109 Y18.0028
G01 X40.6447 Y18.1380
G01 X40.6652 Y18.2758
G01 X40.6720 Y18.4150
G01 X40.6652 Y18.5542
G01 X40.6447 Y18.6920
G01 X40.6109 Y18.8272
G01 X40.5639 Y18.9584
G01 X40.5062 Y19.0807
G01 X40.5002 Y19.0916
G01 X40.4327 Y19.2039
G01 X40.3497 Y19.3158
G01 X40.2561 Y19.4191
G01 X40.1592 Y19.5072
G01 X40.1463 Y19.5178
G01 X40.0477 Y19.5909
G01 X40.0339 Y19.6002
G01 X39.9214 Y19.6673
G01 X39.8030 Y19.7235
G01 X39.7876 Y19.7299
G01 X39.6642 Y19.7739
G01 X39.5290 Y19.8077
G01 X39.3912 Y19.8282
G01 X39.2603 Y19.8348
G01 X39.2437 Y19.8348
G01 X39.1128 Y19.8282
G01 X38.9832 Y19.8091
G01 X38.9668 Y19.8059
G01 X38.8478 Y19.7761
G01 X38.8319 Y19.7712
G01 X38.7086 Y19.7269
G01 X38.5826 Y19.6673
G01 X38.4631 Y19.5957
G01 X38.3577 Y19.5178
G01 X38.3480 Y19.5100
G01 X38.2540 Y19.4248
G01 X38.2422 Y19.4130
G01 X38.1543 Y19.3158
G01 X38.0761 Y19.2107
G01 X38.0668 Y19.1969
G01 X37.9997 Y19.0844
G01 X37.9401 Y18.9584
G01 X37.8931 Y18.8272
G01 X37.8611 Y18.7002
G01 X37.8579 Y18.6838
G01 X37.8388 Y18.5542
G01 X37.8322 Y18.4233
G01 X37.8322 Y18.4067
G01 X37.8388 Y18.2758
G01 X37.8593 Y18.1380
G01 X37.8909 Y18.0108
G01 X37.8958 Y17.9949
G01 X37.9401 Y17.8716
G01 X37.9959 Y17.7531
G01 X38.0038 Y17.7384
G01 X38.0713 Y17.6261
G01 X38.1543 Y17.5142
G01 X38.2422 Y17.4170
G01 X38.2540 Y17.4052
G01 X38.3512 Y17.3173
G01 X38.4563 Y17.2391
G01 X38.4701 Y17.2298
G01 X38.5817 Y17.1631
G01 X38.5817 Y15.6360
G01 X38.5850 Y15.5703
G01 X38.5946 Y15.5052
G01 X38.6106 Y15.4414
G01 X38.6328 Y15.3795
G01 X38.6571 Y15.3275
G01 X38.6650 Y15.3128
G01 X38.6924 Y15.2671
G01 X38.6995 Y15.2568
G01 X38.7339 Y15.2108
G01 X38.7781 Y15.1621
G01 X39.6821 Y14.2581
G01 X39.7276 Y14.2166
G01 X39.7374 Y14.2088
G01 X39.7768 Y14.1795
G01 X39.7907 Y14.1702
G01 X39.8400 Y14.1409
G01 X39.8919 Y14.1162
G01 X39.9073 Y14.1098
G01 X39.9614 Y14.0906
G01 X40.0171 Y14.0765
G01 X40.0335 Y14.0732
G01 X40.0903 Y14.0650
G01 X40.1560 Y14.0617
G01 X44.4782 Y14.0618
G01 X44.5397 Y14.0650
G01 X44.5965 Y14.0732
G01 X44.6129 Y14.0765
G01 X44.6646 Y14.0894
G01 X44.6765 Y14.0932
G01 X44.7305 Y14.1128
G01 X44.7900 Y14.1409
G01 X44.8464 Y14.1747
G01 X44.8817 Y14.2007
G01 X44.8817 Y12.8256
G01 X42.4709 Y10.4148
G01 X42.4020 Y10.4180
G01 X42.3103 Y10.4137
G01 X42.2937 Y10.4121
G01 X42.2112 Y10.3998
G01 X42.1949 Y10.3966
G01 X42.1059 Y10.3741
G01 X42.0155 Y10.3419
G01 X42.0040 Y10.3370
G01 X41.9212 Y10.2976
G01 X41.8353 Y10.2461
G01 X41.7549 Y10.1865
G01 X41.6808 Y10.1192
G01 X41.6135 Y10.0451
G01 X41.5539 Y9.9647
G01 X41.5024 Y9.8788
G01 X41.4630 Y9.7960
G01 X41.4581 Y9.7845
G01 X41.4259 Y9.6941
G01 X41.4034 Y9.6051
G01 X41.4002 Y9.5888
G01 X41.3879 Y9.5063
G01 X41.3863 Y9.4897
G01 X41.3820 Y9.3980
G01 X41.3852 Y9.3291
G01 X39.8384 Y7.7823
G01 X33.3037 Y7.7823
G01 X33.2572 Y7.8332
G01 X33.1894 Y7.8950
G01 X33.1765 Y7.9056
G01 X33.1027 Y7.9601
G01 X33.0241 Y8.0074
G01 X33.0094 Y8.0153
G01 X32.9263 Y8.0544
G01 X32.8361 Y8.0868
G01 X32.8240 Y8.0903
G01 X32.7350 Y8.1124
G01 X32.6443 Y8.1261
G01 X32.6277 Y8.1277
G01 X32.5360 Y8.1320
G01 X32.4443 Y8.1277
G01 X32.4277 Y8.1261
G01 X32.3370 Y8.1124
G01 X32.2399 Y8.0881
G01 X32.1457 Y8.0544
G01 X32.0552 Y8.0116
G01 X31.9764 Y7.9646
G01 X31.9625 Y7.9553
G01 X31.8955 Y7.9056
G01 X31.8826 Y7.8950
G01 X31.8148 Y7.8332
G01 X31.7475 Y7.7591
G01 X31.6879 Y7.6787
G01 X31.6406 Y7.6001
G01 X31.6327 Y7.5854
G01 X31.5970 Y7.5100
